video/luts/SPRITZ_Vandal_Soft.cube
TITLE "SPRITZ Vandal Soft"
LUT_3D_SIZE 9
DOMAIN_MIN 0.0 0.0 0.0
DOMAIN_MAX 1.0 1.0 1.0
0.001962 0.001736 0.001320
0.112735 0.000109 0.000000
0.242364 0.000000 0.000000
0.384713 0.000000 0.000000
0.533467 0.000000 0.000000
0.682189 0.000000 0.000000
0.824446 0.000000 0.000000
0.953932 0.000000 0.000000
1.000000 0.000000 0.000000
0.000000 0.109014 0.000000
0.108781 0.107759 0.000000
0.238924 0.106279 0.000000
0.381629 0.104800 0.000000
0.530470 0.103511 0.000000
0.678967 0.102537 0.000000
0.820723 0.101924 0.000000
0.949544 0.101636 0.000000
1.000000 0.101574 0.000000
0.000000 0.235475 0.000000
0.105715 0.234600 0.000000
0.236189 0.233604 0.000000
0.378946 0.232666 0.000000
0.527442 0.231929 0.000000
0.675169 0.231480 0.000000
0.815811 0.231329 0.000000
0.943358 0.231419 0.000000
1.000000 0.231629 0.000000
0.000000 0.374959 0.000000
0.105476 0.374331 0.000000
0.235816 0.373637 0.000000
0.378017 0.373015 0.000000
0.525434 0.372577 0.000000
0.671576 0.372382 0.000000
0.810266 0.372429 0.000000
0.935757 0.372656 0.000000
1.000000 0.372081 0.000000
0.000000 0.519755 0.000000
0.109570 0.519132 0.000000
0.239118 0.518414 0.000000
0.379957 0.517725 0.000000
0.524353 0.516721 0.000000
0.666954 0.515331 0.000000
0.803498 0.514199 0.000000
0.928018 0.513362 0.000000
1.000000 0.512816 0.000000
0.005591 0.661362 0.000000
0.113341 0.660410 0.000000
0.238823 0.659215 0.000000
0.376045 0.657908 0.000000
0.518863 0.656613 0.000000
0.661091 0.655436 0.000000
0.796682 0.654452 0.000000
0.919889 0.653702 0.000000
1.000000 0.653196 0.000000
0.002894 0.794839 0.000000
0.111204 0.793823 0.000000
0.237079 0.792508 0.000000
0.374262 0.791014 0.000000
0.516429 0.789457 0.000000
0.657354 0.787954 0.000000
0.791112 0.786604 0.000636
0.912241 0.785489 0.004399
1.000000 0.784674 0.007572
0.005530 0.915322 0.000000
0.113919 0.913986 0.000000
0.239578 0.912219 0.000000
0.376049 0.910148 0.000000
0.516892 0.907915 0.004297
0.655892 0.905668 0.009519
0.787284 0.903561 0.015023
0.905915 0.901743 0.020275
1.000000 0.900357 0.024615
0.011035 1.000000 0.000000
0.119207 1.000000 0.001218
0.244325 1.000000 0.005050
0.379798 1.000000 0.010018
0.519123 1.000000 0.015975
0.656122 1.000000 0.022630
0.785189 1.000000 0.029515
0.901445 0.998320 0.035992
1.000000 0.996271 0.041292
0.001445 0.001173 0.112887
0.112277 0.000000 0.111066
0.241968 0.000000 0.108762
0.384365 0.000000 0.106224
0.533141 0.000000 0.103688
0.681854 0.000000 0.101356
0.824074 0.000000 0.099376
0.953505 0.000000 0.097835
1.000000 0.000000 0.096769
0.000000 0.108576 0.106964
0.108456 0.107357 0.105335
0.238639 0.105924 0.103319
0.381365 0.104502 0.101159
0.530198 0.103278 0.099074
0.678655 0.102373 0.097236
0.820343 0.101827 0.095754
0.949082 0.101600 0.094670
1.000000 0.101584 0.093970
0.000000 0.235167 0.100385
0.105584 0.234325 0.099115
0.236067 0.233372 0.097601
0.378808 0.232487 0.096065
0.527254 0.231810 0.094695
0.674900 0.231423 0.093618
0.815433 0.231333 0.092889
0.942862 0.231476 0.092484
1.000000 0.231729 0.092322
0.000000 0.374737 0.094968
0.105596 0.374137 0.094224
0.235907 0.373479 0.093427
0.378046 0.372903 0.092761
0.525364 0.372515 0.092364
0.671372 0.372373 0.092304
0.809906 0.372472 0.092564
0.935247 0.372677 0.093004
1.000000 0.371792 0.092831
0.000000 0.519537 0.092365
0.109987 0.518935 0.092286
0.239462 0.518246 0.092384
0.380188 0.517592 0.092787
0.523933 0.516413 0.092831
0.666540 0.515062 0.092865
0.803053 0.513968 0.093267
0.927518 0.513167 0.093917
1.000000 0.512650 0.094613
0.005235 0.661036 0.092832
0.113037 0.660094 0.092805
0.238565 0.658913 0.093003
0.375809 0.657626 0.093573
0.518612 0.656355 0.094607
0.660783 0.655204 0.096100
0.796279 0.654247 0.097935
0.919373 0.653523 0.099877
1.000000 0.653039 0.101594
0.002925 0.794493 0.094345
0.111256 0.793479 0.095154
0.237133 0.792169 0.096483
0.374284 0.790682 0.098417
0.516374 0.789136 0.100971
0.657177 0.787644 0.104052
0.790779 0.786309 0.107434
0.911738 0.785209 0.110759
1.000000 0.784406 0.113565
0.005943 0.914871 0.099273
0.114321 0.913529 0.100913
0.239941 0.911755 0.103360
0.376329 0.909679 0.106632
0.517039 0.907441 0.110670
0.655858 0.905194 0.115288
0.787036 0.903087 0.120159
0.905446 0.901272 0.124810
1.000000 0.899888 0.128654
0.011770 1.000000 0.105606
0.119906 1.000000 0.107948
0.244951 1.000000 0.111336
0.380301 1.000000 0.115729
0.519447 1.000000 0.121002
0.656219 1.000000 0.126895
0.785026 1.000000 0.132995
0.901018 0.997628 0.138736
1.000000 0.995568 0.143432
0.000792 0.000454 0.243307
0.111699 0.000000 0.241568
0.241467 0.000000 0.239342
0.383923 0.000000 0.236851
0.532723 0.000000 0.234312
0.681420 0.000000 0.231920
0.823587 0.000000 0.229828
0.952942 0.000000 0.228148
1.000000 0.000000 0.226948
0.000000 0.108023 0.237583
0.108054 0.106849 0.235968
0.238285 0.105479 0.233938
0.381034 0.104135 0.231714
0.529852 0.102997 0.229503
0.678252 0.102182 0.227478
0.819847 0.101724 0.225764
0.948475 0.101576 0.224435
1.000000 0.101622 0.223517
0.000000 0.234782 0.230902
0.105437 0.233982 0.229547
0.235928 0.233088 0.227887
0.378643 0.232273 0.226133
0.527021 0.231674 0.224467
0.674553 0.231368 0.223030
0.814941 0.231358 0.221903
0.942211 0.231573 0.221109
1.000000 0.231881 0.220618
0.000000 0.374461 0.224809
0.105780 0.373897 0.223857
0.236048 0.373289 0.222752
0.378102 0.372773 0.221676
0.525286 0.372451 0.220777
0.671115 0.372378 0.220149
0.809439 0.372545 0.219815
0.934639 0.372272 0.219620
1.000000 0.371433 0.219464
0.000000 0.519262 0.220781
0.110559 0.518688 0.220357
0.239935 0.518038 0.219965
0.380509 0.517430 0.219748
0.523400 0.516023 0.219464
0.666008 0.514722 0.219465
0.802476 0.513681 0.219765
0.926862 0.512927 0.220270
1.000000 0.512449 0.220819
0.004805 0.660614 0.219465
0.112672 0.659686 0.219427
0.238257 0.658526 0.219565
0.375526 0.657265 0.220002
0.518302 0.656026 0.220815
0.660391 0.654910 0.222005
0.795760 0.653990 0.223478
0.918701 0.653301 0.225045
1.000000 0.652844 0.226435
0.003008 0.794043 0.220607
0.111361 0.793032 0.221250
0.237237 0.791729 0.222311
0.374340 0.790251 0.223866
0.516324 0.788719 0.225931
0.656962 0.787245 0.228432
0.790352 0.785929 0.231187
0.911084 0.784848 0.233904
1.000000 0.784062 0.236201
0.006530 0.914278 0.224557
0.114890 0.912929 0.225883
0.240453 0.911147 0.227869
0.376727 0.909064 0.230533
0.517257 0.906823 0.233830
0.655833 0.904574 0.237613
0.786724 0.902470 0.241611
0.904839 0.900657 0.245436
1.000000 0.899277 0.248602
0.012781 1.000000 0.229697
0.120866 1.000000 0.231607
0.245810 1.000000 0.234375
0.380992 1.000000 0.237975
0.519899 1.000000 0.242304
0.656366 1.000000 0.247153
0.784827 0.999379 0.252179
0.900469 0.996719 0.256913
0.999214 0.994643 0.260785
0.000067 0.000000 0.386345
0.111058 0.000000 0.384678
0.240911 0.000000 0.382511
0.383429 0.000000 0.380037
0.532251 0.000000 0.377453
0.680923 0.000000 0.374948
0.823022 0.000000 0.372688
0.952284 0.000000 0.370811
1.000000 0.000000 0.369428
0.000000 0.107409 0.380769
0.107619 0.106289 0.379146
0.237901 0.104993 0.377066
0.380671 0.103738 0.374729
0.529465 0.102702 0.372329
0.677792 0.101992 0.370044
0.819274 0.101638 0.368020
0.947767 0.101582 0.366369
1.000000 0.101701 0.365173
0.000000 0.234360 0.373857
0.105302 0.233611 0.372378
0.235796 0.232784 0.370514
0.378475 0.232051 0.368463
0.526766 0.231545 0.366410
0.674161 0.231334 0.364511
0.814373 0.231417 0.362882
0.941455 0.231715 0.361599
1.000000 0.232088 0.360699
0.000000 0.374162 0.366843
0.106030 0.373641 0.365623
0.236243 0.373091 0.364124
0.378192 0.372644 0.362530
0.525214 0.372401 0.361005
0.670828 0.372409 0.359672
0.808904 0.372654 0.358609
0.933930 0.371829 0.358168
1.000000 0.371045 0.357997
0.000000 0.518960 0.361011
0.111262 0.518420 0.360159
0.240518 0.517813 0.359164
0.380102 0.517014 0.358314
0.522803 0.515589 0.357998
0.665406 0.514349 0.357905
0.801812 0.513368 0.358035
0.926100 0.512671 0.358327
1.000000 0.512239 0.358670
0.004361 0.660135 0.357999
0.112299 0.659223 0.357914
0.237943 0.658087 0.357937
0.375232 0.656858 0.358167
0.517970 0.655657 0.358667
0.659956 0.654584 0.359446
0.795167 0.653707 0.360443
0.917924 0.653059 0.361526
1.000000 0.652636 0.362500
0.003164 0.793524 0.358536
0.111539 0.792518 0.358947
0.237406 0.791223 0.359651
0.374446 0.789758 0.360710
0.516298 0.788243 0.362145
0.656735 0.786791 0.363912
0.789871 0.785498 0.365881
0.910333 0.784441 0.367840
1.000000 0.783674 0.369506
0.007275 0.913589 0.361187
0.115609 0.912232 0.362112
0.241100 0.910442 0.363512
0.377234 0.908353 0.365412
0.517545 0.906108 0.367787
0.655830 0.903859 0.370534
0.786381 0.901757 0.373459
0.904146 0.899949 0.376271
1.000000 0.898573 0.378605
0.014021 1.000000 0.364813
0.122043 1.000000 0.366183
0.246862 1.000000 0.368181
0.381843 1.000000 0.370798
0.520463 1.000000 0.373967
0.656568 1.000000 0.377536
0.784618 0.998340 0.381250
0.899847 0.995661 0.384753
0.998230 0.993553 0.387609
0.000000 0.000000 0.535735
0.110407 0.000000 0.534116
0.240345 0.000000 0.531975
0.382922 0.000000 0.529474
0.531760 0.000000 0.526793
0.680398 0.000000 0.524117
0.822417 0.000000 0.521628
0.951572 0.000000 0.519499
1.000000 0.000000 0.517888
0.000000 0.106783 0.530221
0.107191 0.105723 0.528558
0.237522 0.104508 0.526384
0.380307 0.103351 0.523879
0.529068 0.102423 0.521226
0.677309 0.101828 0.518609
0.818661 0.101586 0.516204
0.947004 0.101630 0.514167
1.000000 0.101828 0.512639
0.000000 0.233938 0.522925
0.105198 0.233243 0.521280
0.235689 0.232490 0.519156
0.378323 0.231847 0.516739
0.526513 0.231439 0.514219
0.673753 0.231333 0.511771
0.813769 0.231516 0.509555
0.940642 0.231903 0.507705
1.000000 0.232347 0.506334
0.000000 0.373867 0.514759
0.106342 0.373393 0.513220
0.236491 0.372905 0.511256
0.378319 0.372534 0.509058
0.525158 0.372375 0.506808
0.670535 0.372471 0.504668
0.808258 0.372494 0.503004
0.933166 0.371387 0.502644
1.000000 0.370662 0.502419
0.000842 0.518657 0.506817
0.112062 0.518152 0.505474
0.241182 0.517594 0.503790
0.379443 0.516510 0.502805
0.522191 0.515146 0.502420
0.664778 0.513972 0.502162
0.801109 0.513058 0.502047
0.925284 0.512424 0.502055
1.000000 0.512041 0.502134
0.003949 0.659632 0.502422
0.111958 0.658740 0.502245
0.237658 0.657631 0.502094
0.374959 0.656436 0.502038
0.517646 0.655277 0.502133
0.659512 0.654251 0.502402
0.794545 0.653423 0.502823
0.917095 0.652819 0.503328
1.000000 0.652434 0.503809
0.003403 0.792973 0.502098
0.111795 0.791973 0.502220
0.237645 0.790688 0.502483
0.374608 0.789238 0.502943
0.516308 0.787742 0.503632
0.656518 0.786314 0.504537
0.789374 0.785047 0.505593
0.909536 0.784016 0.506678
1.000000 0.783271 0.507620
0.008150 0.912849 0.503166
0.116451 0.911485 0.503615
0.241856 0.909687 0.504328
0.377830 0.907592 0.505338
0.517897 0.905344 0.506648
0.655859 0.903096 0.508209
0.786034 0.900998 0.509908
0.903416 0.899195 0.511568
1.000000 0.897824 0.512961
0.015432 1.000000 0.505015
0.123379 1.000000 0.505758
0.248057 1.000000 0.506869
0.382812 1.000000 0.508361
0.521114 1.000000 0.510207
0.656820 1.000000 0.512322
0.784421 0.997224 0.514548
0.899197 0.994519 0.516652
0.997184 0.992380 0.518345
0.000000 0.000000 0.685184
0.109791 0.000000 0.683584
0.239808 0.000000 0.681428
0.382437 0.000000 0.678854
0.531284 0.000000 0.676024
0.679878 0.000000 0.673123
0.821809 0.000000 0.670355
0.950851 0.000000 0.667930
1.000000 0.000000 0.666056
0.000000 0.106190 0.679629
0.106802 0.105190 0.677895
0.237175 0.104057 0.675586
0.379968 0.102999 0.672862
0.528687 0.102183 0.669901
0.676834 0.101705 0.666899
0.818049 0.101575 0.664061
0.946234 0.101720 0.661592
1.000000 0.101997 0.659696
0.000000 0.233546 0.671807
0.105137 0.232906 0.669963
0.235619 0.232228 0.667533
0.378200 0.231675 0.664699
0.526280 0.231369 0.661655
0.673356 0.231367 0.658602
0.813168 0.231652 0.655745
0.939826 0.232130 0.653282
1.000000 0.232645 0.651404
0.000000 0.373597 0.662316
0.106702 0.373170 0.660421
0.236778 0.372746 0.657946
0.378478 0.372452 0.655091
0.525127 0.372378 0.652059
0.670257 0.372563 0.649053
0.807523 0.372008 0.647474
0.932395 0.370977 0.647044
1.000000 0.370313 0.646724
0.001778 0.518372 0.652072
0.112914 0.517904 0.650201
0.241890 0.517396 0.647780
0.378820 0.516027 0.647246
0.521605 0.514726 0.646726
0.664166 0.513619 0.646233
0.800412 0.512774 0.645807
0.924464 0.512203 0.645473
1.000000 0.511871 0.645243
0.003603 0.659140 0.646728
0.111677 0.658267 0.646418
0.237426 0.657186 0.646034
0.374730 0.656029 0.645627
0.517355 0.654913 0.645244
0.659089 0.653935 0.644927
0.793934 0.653157 0.644700
0.916268 0.652600 0.644564
1.000000 0.652252 0.644503
0.003717 0.792425 0.645322
0.112120 0.791432 0.645107
0.237944 0.790157 0.644869
0.374821 0.788723 0.644658
0.516358 0.787249 0.644520
0.656330 0.785846 0.644483
0.788893 0.784608 0.644549
0.908746 0.783604 0.644692
1.000000 0.782881 0.644857
0.009110 0.912104 0.644598
0.117371 0.910734 0.644522
0.242680 0.908929 0.644482
0.378484 0.906829 0.644526
0.518295 0.904580 0.644687
0.655922 0.902334 0.644976
0.785710 0.900241 0.645367
0.902697 0.898445 0.645801
1.000000 0.897079 0.646192
0.016935 1.000000 0.644502
0.124799 1.000000 0.644567
0.249327 1.000000 0.644723
0.383845 1.000000 0.645008
0.521818 1.000000 0.645442
0.657113 0.999182 0.646011
0.784252 0.996099 0.646655
0.898563 0.993351 0.647247
0.996147 0.991214 0.647741
0.000000 0.000000 0.828383
0.109246 0.000000 0.826774
0.239332 0.000000 0.824568
0.382004 0.000000 0.821881
0.530850 0.000000 0.818864
0.679397 0.000000 0.815705
0.821239 0.000000 0.812630
0.950168 0.000000 0.809885
1.000000 0.000000 0.807734
0.000000 0.105664 0.822697
0.106473 0.104722 0.820866
0.236880 0.103667 0.818391
0.379673 0.102704 0.815417
0.528346 0.101994 0.812119
0.676396 0.101625 0.808706
0.817475 0.101603 0.805413
0.945506 0.101844 0.802498
1.000000 0.102196 0.800226
0.000000 0.233205 0.814250
0.105119 0.232619 0.812189
0.235587 0.232012 0.809432
0.378110 0.231545 0.806160
0.526080 0.231334 0.802573
0.672994 0.231432 0.798902
0.812608 0.231814 0.795395
0.939056 0.232378 0.792316
1.000000 0.232960 0.789931
0.000000 0.373367 0.803359
0.107082 0.372985 0.801099
0.237084 0.372622 0.798104
0.378656 0.372401 0.794583
0.525118 0.372409 0.790766
0.670009 0.372678 0.786898
0.806836 0.371582 0.785928
0.931667 0.370623 0.785384
1.000000 0.370018 0.784935
0.002707 0.518124 0.790783
0.113758 0.517690 0.788386
0.241316 0.516923 0.786244
0.378268 0.515593 0.785647
0.521081 0.514352 0.784938
0.663607 0.513311 0.784163
0.799765 0.512532 0.783385
0.923694 0.512021 0.782676
1.000000 0.511738 0.782114
0.003340 0.658688 0.784941
0.111469 0.657835 0.784468
0.237257 0.656782 0.783814
0.374556 0.655660 0.783015
0.517113 0.654586 0.782118
0.658714 0.653655 0.781183
0.793372 0.652925 0.780282
0.915495 0.652413 0.779489
1.000000 0.652102 0.778874
0.004081 0.791914 0.782316
0.112488 0.790928 0.781744
0.238281 0.789665 0.780979
0.375067 0.788247 0.780073
0.516441 0.786794 0.779089
0.656180 0.785417 0.778096
0.788458 0.784206 0.777164
0.908011 0.783228 0.776361
1.000000 0.782528 0.775750
0.010087 0.911404 0.779722
0.118304 0.910027 0.779110
0.243516 0.908217 0.778305
0.379151 0.906114 0.777373
0.518711 0.903865 0.776382
0.656013 0.901622 0.775399
0.785427 0.899534 0.774489
0.902034 0.897744 0.773706
1.000000 0.896383 0.773103
0.018426 1.000000 0.777651
0.126208 1.000000 0.777033
0.250586 1.000000 0.776231
0.384872 1.000000 0.775312
0.522525 1.000000 0.774341
0.657425 0.998142 0.773375
0.784121 0.995034 0.772445
0.897985 0.992253 0.771533
0.995185 0.990129 0.770875
0.000000 0.000000 0.959024
0.108800 0.000000 0.957385
0.238941 0.000000 0.955108
0.381645 0.000000 0.952289
0.530486 0.000000 0.949072
0.678986 0.000000 0.945652
0.820745 0.000000 0.942274
0.949570 0.000000 0.939222
1.000000 0.000000 0.936806
0.000000 0.105232 0.953149
0.106216 0.104341 0.951213
0.236648 0.103355 0.948564
0.379437 0.102475 0.945338
0.528063 0.101858 0.941709
0.676024 0.101586 0.937900
0.816979 0.101657 0.934178
0.944872 0.101982 0.930844
1.000000 0.102400 0.928222
0.000000 0.232932 0.944059
0.105135 0.232392 0.941786
0.235585 0.231849 0.938715
0.378053 0.231457 0.935026
0.525921 0.231330 0.930931
0.672689 0.231515 0.926684
0.812125 0.231981 0.922577
0.938388 0.232619 0.918931
1.000000 0.233261 0.916082
0.000000 0.373187 0.931832
0.107445 0.372845 0.929232
0.237378 0.372535 0.925753
0.378834 0.372378 0.921619
0.525128 0.372456 0.917082
0.669592 0.372500 0.913053
0.806243 0.371235 0.912394
0.931033 0.370340 0.911712
1.000000 0.369787 0.911123
0.003552 0.517923 0.917102
0.114526 0.517520 0.914224
0.240804 0.516516 0.912770
0.377818 0.515232 0.912047
0.520646 0.514045 0.911127
0.663136 0.513062 0.910058
0.799210 0.512341 0.908927
0.923026 0.511884 0.907851
1.000000 0.511644 0.906968
0.003160 0.658305 0.911131
0.111334 0.657469 0.910485
0.237149 0.656441 0.909557
0.374436 0.655351 0.908371
0.516928 0.654315 0.906975
0.658406 0.653426 0.905452
0.792895 0.652738 0.903916
0.914827 0.652266 0.902507
1.000000 0.651987 0.901378
0.004451 0.791475 0.907288
0.112858 0.790496 0.906374
0.238617 0.789243 0.905109
0.375317 0.787841 0.903550
0.516542 0.786407 0.901777
0.656071 0.785052 0.899898
0.788094 0.783866 0.898047
0.907381 0.782913 0.896377
1.000000 0.782232 0.895055
0.010993 0.910795 0.902927
0.119167 0.909414 0.901815
0.244290 0.907600 0.900302
0.379770 0.905495 0.898470
0.519104 0.903246 0.896420
0.656117 0.901006 0.894276
0.785199 0.898924 0.892179
0.901470 0.897139 0.890287
1.000000 0.895782 0.888777
0.019782 1.000000 0.899025
0.127487 1.000000 0.897780
0.251730 1.000000 0.896100
0.385807 1.000000 0.894080
0.523176 1.000000 0.891829
0.657725 0.997237 0.889464
0.784031 0.994102 0.887086
0.897496 0.991308 0.884837
0.994360 0.989196 0.883155
0.000000 0.000000 1.000000
0.108475 0.000000 1.000000
0.238655 0.000000 1.000000
0.381380 0.000000 1.000000
0.530214 0.000000 1.000000
0.678673 0.000000 1.000000
0.820365 0.000000 1.000000
0.949109 0.000000 1.000000
1.000000 0.000000 1.000000
0.000000 0.104917 1.000000
0.106037 0.104065 1.000000
0.236485 0.103132 1.000000
0.379267 0.102317 1.000000
0.527854 0.101771 1.000000
0.675743 0.101574 1.000000
0.816600 0.101718 1.000000
0.944383 0.102107 1.000000
1.000000 0.102576 1.000000
0.000000 0.232737 1.000000
0.105166 0.232233 1.000000
0.235601 0.231738 1.000000
0.378022 0.231405 1.000000
0.525809 0.231343 1.000000
0.672461 0.231594 1.000000
0.811757 0.232126 1.000000
0.937874 0.232822 1.000000
1.000000 0.233509 1.000000
0.000000 0.373061 1.000000
0.107745 0.372749 1.000000
0.237622 0.372481 1.000000
0.378985 0.372373 1.000000
0.525146 0.372506 1.000000
0.669147 0.372194 1.000000
0.805790 0.370984 1.000000
0.930544 0.370139 1.000000
1.000000 0.369626 1.000000
0.004225 0.517778 1.000000
0.115138 0.517399 1.000000
0.240433 0.516213 1.000000
0.377489 0.514965 1.000000
0.520325 0.513820 1.000000
0.662783 0.512882 1.000000
0.798788 0.512207 1.000000
0.922513 0.511792 1.000000
1.000000 0.511586 1.000000
0.003052 0.658017 1.000000
0.111258 0.657194 1.000000
0.237091 0.656186 1.000000
0.374365 0.655121 1.000000
0.516802 0.654115 1.000000
0.658180 0.653258 1.000000
0.792534 0.652604 1.000000
0.914317 0.652163 1.000000
1.000000 0.651909 1.000000
0.004770 0.791141 1.000000
0.113173 0.790167 1.000000
0.238903 0.788923 1.000000
0.375533 0.787532 1.000000
0.516639 0.786114 1.000000
0.656000 0.784778 1.000000
0.787824 0.783611 1.000000
0.906902 0.782677 0.999607
1.000000 0.782012 0.997716
0.011726 0.910327 1.000000
0.119865 0.908943 1.000000
0.244914 0.907127 1.000000
0.380271 0.905020 1.000000
0.519428 0.902773 0.999669
0.656213 0.900536 0.996594
0.785035 0.898458 0.993549
0.901043 0.896678 0.990772
1.000000 0.895323 0.988536
0.020862 1.000000 1.000000
0.128506 1.000000 1.000000
0.252641 1.000000 0.999211
0.386554 1.000000 0.996311
0.523699 0.999819 0.993037
0.657974 0.996539 0.989554
0.783980 0.993373 0.985993
0.897129 0.990588 0.982724
0.993733 0.988485 0.980239
