video/luts/SPRITZ_Vandal_Soft.cube
TITLE "SPRITZ Vandal Soft"
LUT_3D_SIZE 33
DOMAIN_MIN 0.0 0.0 0.0
DOMAIN_MAX 1.0 1.0 1.0
0.001962 0.001736 0.001320
0.027559 0.001377 0.000907
0.054615 0.000983 0.000451
0.083038 0.000559 0.000000
0.112735 0.000109 0.000000
0.143611 0.000000 0.000000
0.175571 0.000000 0.000000
0.208521 0.000000 0.000000
0.242364 0.000000 0.000000
0.277002 0.000000 0.000000
0.312339 0.000000 0.000000
0.348276 0.000000 0.000000
0.384713 0.000000 0.000000
0.421552 0.000000 0.000000
0.458691 0.000000 0.000000
0.496029 0.000000 0.000000
0.533467 0.000000 0.000000
0.570903 0.000000 0.000000
0.608236 0.000000 0.000000
0.645365 0.000000 0.000000
0.682189 0.000000 0.000000
0.718609 0.000000 0.000000
0.754524 0.000000 0.000000
0.789836 0.000000 0.000000
0.824446 0.000000 0.000000
0.858256 0.000000 0.000000
0.891171 0.000000 0.000000
0.923095 0.000000 0.000000
0.953932 0.000000 0.000000
0.983588 0.000000 0.000000
1.000000 0.000000 0.000000
1.000000 0.000000 0.000000
1.000000 0.000000 0.000000
0.000874 0.026479 0.000000
0.026499 0.026137 0.000000
0.053586 0.025763 0.000000
0.082042 0.025362 0.000000
0.111772 0.024936 0.000000
0.142681 0.024491 0.000000
0.174674 0.024030 0.000000
0.207656 0.023559 0.000000
0.241530 0.023080 0.000000
0.276197 0.022599 0.000000
0.311560 0.022118 0.000000
0.347521 0.021642 0.000000
0.383979 0.021173 0.000000
0.420834 0.020716 0.000000
0.457986 0.020272 0.000000
0.495333 0.019845 0.000000
0.532776 0.019436 0.000000
0.570213 0.019049 0.000000
0.607542 0.018683 0.000000
0.644663 0.018342 0.000000
0.681476 0.018026 0.000000
0.717880 0.017735 0.000000
0.753776 0.017470 0.000000
0.789065 0.017230 0.000000
0.823649 0.017016 0.000000
0.857432 0.016827 0.000000
0.890317 0.016661 0.000000
0.922209 0.016518 0.000000
0.953014 0.016397 0.000000
0.982639 0.016294 0.000000
1.000000 0.016210 0.000000
1.000000 0.016142 0.000000
1.000000 0.016087 0.000000
0.000000 0.052654 0.000000
0.025398 0.052332 0.000000
0.052518 0.051980 0.000000
0.081007 0.051602 0.000000
0.110771 0.051203 0.000000
0.141715 0.050786 0.000000
0.173743 0.050355 0.000000
0.206757 0.049914 0.000000
0.240661 0.049468 0.000000
0.275358 0.049020 0.000000
0.310747 0.048573 0.000000
0.346729 0.048132 0.000000
0.383206 0.047699 0.000000
0.420076 0.047277 0.000000
0.457238 0.046870 0.000000
0.494592 0.046479 0.000000
0.532036 0.046107 0.000000
0.569470 0.045756 0.000000
0.606791 0.045427 0.000000
0.643899 0.045121 0.000000
0.680694 0.044839 0.000000
0.717077 0.044582 0.000000
0.752947 0.044350 0.000000
0.788207 0.044143 0.000000
0.822760 0.043959 0.000000
0.856508 0.043800 0.000000
0.889356 0.043662 0.000000
0.921210 0.043546 0.000000
0.951976 0.043450 0.000000
0.981561 0.043371 0.000000
1.000000 0.043308 0.000000
1.000000 0.043259 0.000000
1.000000 0.043222 0.000000
0.000000 0.080190 0.000000
0.024289 0.079890 0.000000
0.051442 0.079561 0.000000
0.079965 0.079209 0.000000
0.109764 0.078837 0.000000
0.140742 0.078448 0.000000
0.172803 0.078048 0.000000
0.205850 0.077640 0.000000
0.239784 0.077227 0.000000
0.274507 0.076814 0.000000
0.309921 0.076403 0.000000
0.345923 0.075998 0.000000
0.382416 0.075602 0.000000
0.419297 0.075218 0.000000
0.456466 0.074848 0.000000
0.493822 0.074495 0.000000
0.531262 0.074161 0.000000
0.568687 0.073847 0.000000
0.605994 0.073555 0.000000
0.643083 0.073285 0.000000
0.679855 0.073040 0.000000
0.716209 0.072818 0.000000
0.752046 0.072619 0.000000
0.787270 0.072445 0.000000
0.821782 0.072293 0.000000
0.855487 0.072164 0.000000
0.888291 0.072055 0.000000
0.920099 0.071966 0.000000
0.950818 0.071895 0.000000
0.980357 0.071840 0.000000
1.000000 0.071799 0.000000
1.000000 0.071770 0.000000
1.000000 0.071750 0.000000
0.000000 0.109014 0.000000
0.023206 0.108735 0.000000
0.050391 0.108430 0.000000
0.078948 0.108104 0.000000
0.108781 0.107759 0.000000
0.139792 0.107401 0.000000
0.171885 0.107032 0.000000
0.204962 0.106657 0.000000
0.238924 0.106279 0.000000
0.273672 0.105901 0.000000
0.309105 0.105526 0.000000
0.345125 0.105158 0.000000
0.381629 0.104800 0.000000
0.418517 0.104453 0.000000
0.455688 0.104122 0.000000
0.493039 0.103807 0.000000
0.530470 0.103511 0.000000
0.567879 0.103234 0.000000
0.605165 0.102979 0.000000
0.642228 0.102747 0.000000
0.678967 0.102537 0.000000
0.715284 0.102350 0.000000
0.751081 0.102185 0.000000
0.786259 0.102044 0.000000
0.820723 0.101924 0.000000
0.854376 0.101824 0.000000
0.887126 0.101744 0.000000
0.918880 0.101682 0.000000
0.949544 0.101636 0.000000
0.979027 0.101605 0.000000
1.000000 0.101585 0.000000
1.000000 0.101576 0.000000
1.000000 0.101574 0.000000
0.000000 0.139043 0.000000
0.022183 0.138786 0.000000
0.049399 0.138505 0.000000
0.077988 0.138205 0.000000
0.107853 0.137889 0.000000
0.138895 0.137560 0.000000
0.171018 0.137223 0.000000
0.204122 0.136881 0.000000
0.238107 0.136537 0.000000
0.272876 0.136194 0.000000
0.308326 0.135855 0.000000
0.344356 0.135524 0.000000
0.380867 0.135203 0.000000
0.417756 0.134894 0.000000
0.454921 0.134600 0.000000
0.492262 0.134323 0.000000
0.529675 0.134064 0.000000
0.567061 0.133825 0.000000
0.604317 0.133606 0.000000
0.641345 0.133409 0.000000
0.678043 0.133234 0.000000
0.714314 0.133081 0.000000
0.750060 0.132950 0.000000
0.785183 0.132840 0.000000
0.819588 0.132751 0.000000
0.853180 0.132681 0.000000
0.885867 0.132629 0.000000
0.917556 0.132593 0.000000
0.948155 0.132571 0.000000
0.977576 0.132562 0.000000
1.000000 0.132563 0.000000
1.000000 0.132572 0.000000
1.000000 0.132587 0.000000
0.000000 0.170193 0.000000
0.021254 0.169956 0.000000
0.048500 0.169699 0.000000
0.077118 0.169425 0.000000
0.107011 0.169136 0.000000
0.138082 0.168837 0.000000
0.170230 0.168531 0.000000
0.203356 0.168221 0.000000
0.237362 0.167910 0.000000
0.272145 0.167601 0.000000
0.307605 0.167297 0.000000
0.343641 0.167002 0.000000
0.380151 0.166716 0.000000
0.417034 0.166444 0.000000
0.454186 0.166186 0.000000
0.491507 0.165945 0.000000
0.528894 0.165722 0.000000
0.566247 0.165518 0.000000
0.603465 0.165335 0.000000
0.640447 0.165172 0.000000
0.677094 0.165031 0.000000
0.713308 0.164910 0.000000
0.748992 0.164810 0.000000
0.784050 0.164731 0.000000
0.818385 0.164670 0.000000
0.851906 0.164627 0.000000
0.884519 0.164601 0.000000
0.916133 0.164589 0.000000
0.946658 0.164590 0.000000
0.976005 0.164602 0.000000
1.000000 0.164623 0.000000
1.000000 0.164649 0.000000
1.000000 0.164680 0.000000
0.000000 0.202370 0.000000
0.020454 0.202154 0.000000
0.047726 0.201919 0.000000
0.076370 0.201669 0.000000
0.106288 0.201407 0.000000
0.137382 0.201136 0.000000
0.169551 0.200859 0.000000
0.202695 0.200579 0.000000
0.236713 0.200300 0.000000
0.271505 0.200024 0.000000
0.306969 0.199753 0.000000
0.343002 0.199491 0.000000
0.379504 0.199240 0.000000
0.416371 0.199002 0.000000
0.453501 0.198778 0.000000
0.490793 0.198571 0.000000
0.528144 0.198381 0.000000
0.565454 0.198210 0.000000
0.602622 0.198059 0.000000
0.639547 0.197928 0.000000
0.676132 0.197817 0.000000
0.712278 0.197727 0.000000
0.747889 0.197655 0.000000
0.782869 0.197603 0.000000
0.817123 0.197569 0.000000
0.850561 0.197551 0.000000
0.883088 0.197548 0.000000
0.914617 0.197558 0.000000
0.945057 0.197580 0.000000
0.974320 0.197611 0.000000
1.000000 0.197648 0.000000
1.000000 0.197690 0.000000
1.000000 0.197735 0.000000
0.000000 0.235475 0.000000
0.019817 0.235278 0.000000
0.047111 0.235065 0.000000
0.075776 0.234838 0.000000
0.105715 0.234600 0.000000
0.136826 0.234355 0.000000
0.169009 0.234105 0.000000
0.202164 0.233854 0.000000
0.236189 0.233604 0.000000
0.270981 0.233357 0.000000
0.306440 0.233117 0.000000
0.342463 0.232886 0.000000
0.378946 0.232666 0.000000
0.415788 0.232458 0.000000
0.452886 0.232265 0.000000
0.490138 0.232089 0.000000
0.527442 0.231929 0.000000
0.564697 0.231788 0.000000
0.601803 0.231666 0.000000
0.638660 0.231563 0.000000
0.675169 0.231480 0.000000
0.711235 0.231415 0.000000
0.746760 0.231369 0.000000
0.781650 0.231341 0.000000
0.815811 0.231329 0.000000
0.849152 0.231333 0.000000
0.881583 0.231350 0.000000
0.913014 0.231380 0.000000
0.943358 0.231419 0.000000
0.972527 0.231465 0.000000
1.000000 0.231518 0.000000
1.000000 0.231573 0.000000
1.000000 0.231629 0.000000
0.000000 0.269402 0.000000
0.019374 0.269223 0.000000
0.046685 0.269029 0.000000
0.075367 0.268822 0.000000
0.105320 0.268607 0.000000
0.136442 0.268385 0.000000
0.168633 0.268160 0.000000
0.201791 0.267934 0.000000
0.235814 0.267710 0.000000
0.270598 0.267490 0.000000
0.306043 0.267277 0.000000
0.342044 0.267072 0.000000
0.378499 0.266879 0.000000
0.415305 0.266699 0.000000
0.452359 0.266533 0.000000
0.489559 0.266383 0.000000
0.526803 0.266249 0.000000
0.563991 0.266134 0.000000
0.601022 0.266036 0.000000
0.637798 0.265957 0.000000
0.674220 0.265897 0.000000
0.710191 0.265854 0.000000
0.745617 0.265829 0.000000
0.780403 0.265821 0.000000
0.814458 0.265828 0.000000
0.847691 0.265849 0.000000
0.880012 0.265883 0.000000
0.911333 0.265927 0.000000
0.941569 0.265980 0.000000
0.970633 0.266039 0.000000
0.998443 0.266103 0.000000
1.000000 0.266168 0.000000
1.000000 0.266233 0.000000
0.000000 0.304039 0.000000
0.019156 0.303875 0.000000
0.046479 0.303697 0.000000
0.075172 0.303509 0.000000
0.105131 0.303313 0.000000
0.136258 0.303111 0.000000
0.168448 0.302907 0.000000
0.201601 0.302702 0.000000
0.235612 0.302500 0.000000
0.270379 0.302303 0.000000
0.305799 0.302112 0.000000
0.341768 0.301931 0.000000
0.378183 0.301760 0.000000
0.414941 0.301602 0.000000
0.451939 0.301459 0.000000
0.489074 0.301330 0.000000
0.526246 0.301218 0.000000
0.563353 0.301122 0.000000
0.600296 0.301044 0.000000
0.636976 0.300984 0.000000
0.673295 0.300941 0.000000
0.709159 0.300916 0.000000
0.744472 0.300906 0.000000
0.779141 0.300913 0.000000
0.813076 0.300934 0.000000
0.846186 0.300968 0.000000
0.878384 0.301014 0.000000
0.909583 0.301069 0.000000
0.939699 0.301132 0.000000
0.968647 0.301200 0.000000
0.996345 0.301271 0.000000
1.000000 0.301344 0.000000
1.000000 0.301415 0.000000
0.000000 0.339266 0.000000
0.019192 0.339114 0.000000
0.046521 0.338950 0.000000
0.075216 0.338777 0.000000
0.105176 0.338596 0.000000
0.136298 0.338411 0.000000
0.168479 0.338224 0.000000
0.201616 0.338036 0.000000
0.235606 0.337852 0.000000
0.270345 0.337672 0.000000
0.305729 0.337500 0.000000
0.341654 0.337336 0.000000
0.378017 0.337183 0.000000
0.414714 0.337042 0.000000
0.451642 0.336914 0.000000
0.488700 0.336802 0.000000
0.525785 0.336705 0.000000
0.562797 0.336624 0.000000
0.599637 0.336560 0.000000
0.636207 0.336512 0.000000
0.672410 0.336482 0.000000
0.708151 0.336467 0.000000
0.743336 0.336469 0.000000
0.777874 0.336485 0.000000
0.811674 0.336514 0.000000
0.844649 0.336556 0.000000
0.876711 0.336608 0.000000
0.907775 0.336669 0.000000
0.937758 0.336737 0.000000
0.966578 0.336810 0.000000
0.994153 0.336885 0.000000
1.000000 0.336961 0.000000
1.000000 0.337034 0.000000
0.000000 0.374959 0.000000
0.019505 0.374816 0.000000
0.046833 0.374663 0.000000
0.075524 0.374500 0.000000
0.105476 0.374331 0.000000
0.136584 0.374158 0.000000
0.168747 0.373983 0.000000
0.201859 0.373809 0.000000
0.235816 0.373637 0.000000
0.270515 0.373469 0.000000
0.305851 0.373309 0.000000
0.341720 0.373157 0.000000
0.378017 0.373015 0.000000
0.414640 0.372885 0.000000
0.451485 0.372768 0.000000
0.488450 0.372665 0.000000
0.525434 0.372577 0.000000
0.562337 0.372505 0.000000
0.599060 0.372448 0.000000
0.635505 0.372407 0.000000
0.671576 0.372382 0.000000
0.707179 0.372373 0.000000
0.742222 0.372378 0.000000
0.776614 0.372397 0.000000
0.810266 0.372429 0.000000
0.843090 0.372473 0.000000
0.875002 0.372527 0.000000
0.905919 0.372588 0.000000
0.935757 0.372656 0.000000
0.964437 0.372729 0.000000
0.991974 0.372487 0.000000
1.000000 0.372270 0.000000
1.000000 0.372081 0.000000
0.000000 0.410988 0.000000
0.020118 0.410852 0.000000
0.047438 0.410705 0.000000
0.076117 0.410549 0.000000
0.106051 0.410387 0.000000
0.137137 0.410221 0.000000
0.169270 0.410054 0.000000
0.202346 0.409886 0.000000
0.236260 0.409721 0.000000
0.270907 0.409560 0.000000
0.306183 0.409406 0.000000
0.341982 0.409260 0.000000
0.378200 0.409123 0.000000
0.414735 0.408998 0.000000
0.451482 0.408884 0.000000
0.488341 0.408784 0.000000
0.525209 0.408698 0.000000
0.561987 0.408627 0.000000
0.598577 0.408571 0.000000
0.634881 0.408530 0.000000
0.670806 0.408504 0.000000
0.706256 0.408493 0.000000
0.741142 0.408495 0.000000
0.775373 0.408511 0.000000
0.808862 0.408540 0.000000
0.841505 0.408477 0.000000
0.873244 0.408167 0.000000
0.904064 0.407883 0.000000
0.933873 0.407622 0.000000
0.962580 0.407386 0.000000
0.990094 0.407175 0.000000
1.000000 0.406987 0.000000
1.000000 0.406822 0.000000
0.000000 0.447220 0.000000
0.021048 0.447087 0.000000
0.048352 0.446942 0.000000
0.077010 0.446789 0.000000
0.106918 0.446630 0.000000
0.137972 0.446466 0.000000
0.170065 0.446300 0.000000
0.203094 0.446134 0.000000
0.236952 0.445970 0.000000
0.271535 0.445810 0.000000
0.306736 0.445655 0.000000
0.342452 0.445508 0.000000
0.378578 0.445369 0.000000
0.415010 0.445241 0.000000
0.451646 0.445125 0.000000
0.488382 0.445020 0.000000
0.525119 0.444929 0.000000
0.561758 0.444852 0.000000
0.598200 0.444789 0.000000
0.634349 0.444740 0.000000
0.670111 0.444706 0.000000
0.705394 0.444686 0.000000
0.739896 0.444345 0.000000
0.773832 0.444006 0.000000
0.807123 0.443689 0.000000
0.839675 0.443394 0.000000
0.871395 0.443121 0.000000
0.902191 0.442871 0.000000
0.931972 0.442643 0.000000
0.960647 0.442436 0.000000
0.988126 0.442252 0.000000
1.000000 0.442089 0.000000
1.000000 0.441946 0.000000
0.000000 0.483521 0.000000
0.022308 0.483386 0.000000
0.049588 0.483241 0.000000
0.078217 0.483086 0.000000
0.108089 0.482924 0.000000
0.139099 0.482757 0.000000
0.171142 0.482587 0.000000
0.204112 0.482416 0.000000
0.237902 0.482247 0.000000
0.272408 0.482080 0.000000
0.307523 0.481919 0.000000
0.343142 0.481763 0.000000
0.379161 0.481616 0.000000
0.415477 0.481478 0.000000
0.451985 0.481350 0.000000
0.488585 0.481234 0.000000
0.525176 0.481131 0.000000
0.561660 0.481040 0.000000
0.597761 0.480844 0.000000
0.633355 0.480470 0.000000
0.668674 0.480112 0.000000
0.703623 0.479771 0.000000
0.738107 0.479449 0.000000
0.772032 0.479146 0.000000
0.805304 0.478863 0.000000
0.837830 0.478600 0.000000
0.869518 0.478357 0.000000
0.900276 0.478135 0.000000
0.930016 0.477934 0.000000
0.958647 0.477752 0.000000
0.986081 0.477590 0.000000
1.000000 0.477447 0.000000
1.000000 0.477323 0.000000
0.000000 0.519755 0.000000
0.023906 0.519615 0.000000
0.051154 0.519464 0.000000
0.079744 0.519302 0.000000
0.109570 0.519132 0.000000
0.140528 0.518957 0.000000
0.172509 0.518777 0.000000
0.205408 0.518596 0.000000
0.239118 0.518414 0.000000
0.273534 0.518235 0.000000
0.308549 0.518059 0.000000
0.344058 0.517889 0.000000
0.379957 0.517725 0.000000
0.416141 0.517570 0.000000
0.452508 0.517424 0.000000
0.488471 0.517100 0.000000
0.524353 0.516721 0.000000
0.560238 0.516354 0.000000
0.596030 0.515998 0.000000
0.631634 0.515657 0.000000
0.666954 0.515331 0.000000
0.701894 0.515022 0.000000
0.736361 0.514730 0.000000
0.770259 0.514455 0.000000
0.803498 0.514199 0.000000
0.835983 0.513962 0.000000
0.867625 0.513743 0.000000
0.898333 0.513543 0.000000
0.928018 0.513362 0.000000
0.956593 0.513199 0.000000
0.983971 0.513054 0.000000
1.000000 0.512927 0.000000
1.000000 0.512816 0.000000
0.000076 0.555788 0.000000
0.025843 0.555639 0.000000
0.053051 0.555477 0.000000
0.081594 0.555304 0.000000
0.111365 0.555121 0.000000
0.142259 0.554931 0.000000
0.174168 0.554736 0.000000
0.206984 0.554538 0.000000
0.240603 0.554338 0.000000
0.274916 0.554139 0.000000
0.309819 0.553942 0.000000
0.345038 0.553714 0.000000
0.380013 0.553341 0.000000
0.415364 0.552970 0.000000
0.450996 0.552605 0.000000
0.486814 0.552246 0.000000
0.522721 0.551895 0.000000
0.558621 0.551555 0.000000
0.594418 0.551227 0.000000
0.630017 0.550911 0.000000
0.665322 0.550610 0.000000
0.700238 0.550323 0.000000
0.734672 0.550053 0.000000
0.768529 0.549800 0.000000
0.801719 0.549563 0.000000
0.834149 0.549344 0.000000
0.865730 0.549142 0.000000
0.896374 0.548958 0.000000
0.925992 0.548791 0.000000
0.954499 0.548641 0.000000
0.981808 0.548508 0.000000
1.000000 0.548390 0.000000
1.000000 0.548289 0.000000
0.002391 0.591488 0.000000
0.028118 0.591326 0.000000
0.055277 0.591149 0.000000
0.083764 0.590960 0.000000
0.113471 0.590759 0.000000
0.144291 0.590549 0.000000
0.176116 0.590332 0.000000
0.208840 0.590111 0.000000
0.241521 0.589782 0.000000
0.274869 0.589437 0.000000
0.308869 0.589088 0.000000
0.343428 0.588738 0.000000
0.378449 0.588387 0.000000
0.413838 0.588039 0.000000
0.449500 0.587694 0.000000
0.485337 0.587356 0.000000
0.521253 0.587026 0.000000
0.557153 0.586705 0.000000
0.592940 0.586394 0.000000
0.628518 0.586096 0.000000
0.663792 0.585811 0.000000
0.698669 0.585539 0.000000
0.733054 0.585283 0.000000
0.766855 0.585043 0.000000
0.799981 0.584818 0.000000
0.832341 0.584609 0.000000
0.863848 0.584417 0.000000
0.894414 0.584242 0.000000
0.923952 0.584082 0.000000
0.952378 0.583939 0.000000
0.979607 0.583811 0.000000
1.000000 0.583699 0.000000
1.000000 0.583601 0.000000
0.005041 0.626728 0.000000
0.030720 0.626550 0.000000
0.057824 0.626354 0.000000
0.085978 0.626128 0.000000
0.114750 0.625853 0.000000
0.144631 0.625563 0.000000
0.175532 0.625260 0.000000
0.207359 0.624946 0.000000
0.240021 0.624623 0.000000
0.273423 0.624293 0.000000
0.307471 0.623960 0.000000
0.342069 0.623624 0.000000
0.377123 0.623287 0.000000
0.412536 0.622953 0.000000
0.448212 0.622622 0.000000
0.484053 0.622296 0.000000
0.519964 0.621977 0.000000
0.555848 0.621666 0.000000
0.591608 0.621365 0.000000
0.627150 0.621075 0.000000
0.662379 0.620798 0.000000
0.697200 0.620533 0.000000
0.731521 0.620283 0.000000
0.765250 0.620047 0.000000
0.798297 0.619826 0.000000
0.830574 0.619620 0.000000
0.861993 0.619430 0.000000
0.892467 0.619256 0.000000
0.921913 0.619098 0.000000
0.950246 0.618955 0.000000
0.977384 0.618827 0.000000
1.000000 0.618714 0.000000
1.000000 0.618616 0.000000
0.005591 0.661362 0.000000
0.030546 0.661154 0.000000
0.056883 0.660925 0.000000
0.084511 0.660676 0.000000
0.113341 0.660410 0.000000
0.143280 0.660129 0.000000
0.174236 0.659834 0.000000
0.206114 0.659529 0.000000
0.238823 0.659215 0.000000
0.272266 0.658893 0.000000
0.306348 0.658567 0.000000
0.340973 0.658238 0.000000
0.376045 0.657908 0.000000
0.411467 0.657579 0.000000
0.447143 0.657252 0.000000
0.482973 0.656930 0.000000
0.518863 0.656613 0.000000
0.554716 0.656305 0.000000
0.590434 0.656005 0.000000
0.625925 0.655715 0.000000
0.661091 0.655436 0.000000
0.695842 0.655170 0.000000
0.730084 0.654916 0.000000
0.763727 0.654677 0.000000
0.796682 0.654452 0.000000
0.828861 0.654241 0.000000
0.860178 0.654046 0.000000
0.890548 0.653866 0.000000
0.919889 0.653702 0.000000
0.948118 0.653553 0.000000
0.975155 0.653419 0.000000
1.000000 0.653300 0.000000
1.000000 0.653196 0.000000
0.004346 0.695552 0.000000
0.029346 0.695347 0.000000
0.055730 0.695121 0.000000
0.083408 0.694876 0.000000
0.112286 0.694613 0.000000
0.142272 0.694334 0.000000
0.173271 0.694042 0.000000
0.205190 0.693738 0.000000
0.237932 0.693425 0.000000
0.271404 0.693105 0.000000
0.305507 0.692778 0.000000
0.340145 0.692448 0.000000
0.375222 0.692116 0.000000
0.410638 0.691784 0.000000
0.446298 0.691453 0.000000
0.482104 0.691126 0.000000
0.517958 0.690804 0.000000
0.553764 0.690489 0.000000
0.589426 0.690181 0.000000
0.624849 0.689882 0.000000
0.659940 0.689594 0.000000
0.694605 0.689317 0.000000
0.728754 0.689053 0.000000
0.762297 0.688801 0.000000
0.795146 0.688564 0.000000
0.827214 0.688341 0.000000
0.858416 0.688133 0.000000
0.888671 0.687941 0.000000
0.917895 0.687763 0.000000
0.946010 0.687602 0.000000
0.972936 0.687456 0.000000
0.998596 0.687326 0.000000
1.000000 0.687211 0.000000
0.003487 0.729277 0.000000
0.028525 0.729072 0.000000
0.054950 0.728844 0.000000
0.082667 0.728597 0.000000
0.111584 0.728331 0.000000
0.141606 0.728049 0.000000
0.172638 0.727753 0.000000
0.204585 0.727445 0.000000
0.237350 0.727126 0.000000
0.270837 0.726799 0.000000
0.304948 0.726464 0.000000
0.339586 0.726125 0.000000
0.374653 0.725784 0.000000
0.410051 0.725440 0.000000
0.445681 0.725098 0.000000
0.481447 0.724758 0.000000
0.517251 0.724421 0.000000
0.552997 0.724090 0.000000
0.588588 0.723766 0.000000
0.623931 0.723451 0.000000
0.658931 0.723144 0.000000
0.693498 0.722849 0.000000
0.727540 0.722565 0.000000
0.760970 0.722295 0.000000
0.793700 0.722037 0.000000
0.825645 0.721794 0.000000
0.856721 0.721567 0.000000
0.886849 0.721354 0.000000
0.915947 0.721158 0.000000
0.943937 0.720978 0.000000
0.970744 0.720814 0.000000
0.996289 0.720668 0.000000
1.000000 0.720538 0.000182
0.003008 0.762413 0.000000
0.028078 0.762202 0.000000
0.054534 0.761969 0.000000
0.082282 0.761714 0.000000
0.111228 0.761441 0.000000
0.141276 0.761150 0.000000
0.172330 0.760844 0.000000
0.204294 0.760524 0.000000
0.237070 0.760193 0.000000
0.270560 0.759852 0.000000
0.304667 0.759503 0.000000
0.339292 0.759147 0.000000
0.374336 0.758788 0.000000
0.409701 0.758426 0.000000
0.445289 0.758064 0.000000
0.481002 0.757702 0.000000
0.516743 0.757343 0.000000
0.552415 0.756989 0.000000
0.587922 0.756641 0.000000
0.623171 0.756300 0.000000
0.658069 0.755968 0.000000
0.692524 0.755646 0.000000
0.726448 0.755336 0.000000
0.759753 0.755038 0.000000
0.792353 0.754753 0.000000
0.824164 0.754483 0.000000
0.855105 0.754229 0.000000
0.885095 0.753990 0.000058
0.914058 0.753769 0.000874
0.941916 0.753564 0.001659
0.968594 0.753378 0.002404
0.994018 0.753210 0.003101
1.000000 0.753061 0.003741
0.002894 0.794839 0.000000
0.027988 0.794619 0.000000
0.054468 0.794375 0.000000
0.082238 0.794109 0.000000
0.111204 0.793823 0.000000
0.141269 0.793518 0.000000
0.172334 0.793196 0.000000
0.204304 0.792859 0.000000
0.237079 0.792508 0.000000
0.270562 0.792147 0.000000
0.304653 0.791776 0.000000
0.339252 0.791398 0.000000
0.374262 0.791014 0.000000
0.409583 0.790626 0.000000
0.445116 0.790236 0.000000
0.480764 0.789846 0.000000
0.516429 0.789457 0.000000
0.552015 0.789072 0.000000
0.587427 0.788692 0.000000
0.622570 0.788319 0.000000
0.657354 0.787954 0.000000
0.691688 0.787598 0.000000
0.725483 0.787254 0.000000
0.758652 0.786922 0.000000
0.791112 0.786604 0.000636
0.822780 0.786300 0.001601
0.853576 0.786013 0.002556
0.883422 0.785742 0.003491
0.912241 0.785489 0.004399
0.939959 0.785256 0.005269
0.966503 0.785041 0.006095
0.991800 0.784847 0.006865
1.000000 0.784674 0.007572
0.003122 0.826443 0.000000
0.028233 0.826210 0.000000
0.054730 0.825952 0.000000
0.082515 0.825670 0.000000
0.111492 0.825366 0.000000
0.141563 0.825041 0.000000
0.172631 0.824698 0.000000
0.204597 0.824339 0.000000
0.237362 0.823964 0.000000
0.270826 0.823576 0.000000
0.304889 0.823177 0.000000
0.339453 0.822769 0.000000
0.374417 0.822354 0.000000
0.409683 0.821934 0.000000
0.445151 0.821510 0.000000
0.480722 0.821084 0.000000
0.516301 0.820660 0.000000
0.551791 0.820237 0.000000
0.587097 0.819818 0.000000
0.622125 0.819406 0.000000
0.656786 0.819001 0.000000
0.690988 0.818605 0.000792
0.724645 0.818220 0.001857
0.757671 0.817848 0.002930
0.789983 0.817490 0.004005
0.821500 0.817147 0.005073
0.852144 0.816821 0.006126
0.881839 0.816513 0.007156
0.910508 0.816224 0.008154
0.938081 0.815956 0.009110
0.964485 0.815710 0.010014
0.989651 0.815486 0.010858
1.000000 0.815285 0.011630
0.003662 0.857120 0.000000
0.028785 0.856872 0.000000
0.055291 0.856596 0.000000
0.083083 0.856294 0.000000
0.112064 0.855968 0.000000
0.142134 0.855620 0.000000
0.173195 0.855251 0.000000
0.205148 0.854863 0.000000
0.237893 0.854459 0.000000
0.271329 0.854040 0.000000
0.305356 0.853607 0.000000
0.339874 0.853164 0.000000
0.374783 0.852712 0.000000
0.409984 0.852254 0.000000
0.445377 0.851790 0.000000
0.480863 0.851323 0.000000
0.516347 0.850856 0.000000
0.551732 0.850390 0.000000
0.586923 0.849927 0.000622
0.621829 0.849469 0.001735
0.656358 0.849019 0.002873
0.690422 0.848577 0.004032
0.723934 0.848147 0.005205
0.756810 0.847729 0.006384
0.788968 0.847326 0.007562
0.820329 0.846938 0.008731
0.850816 0.846569 0.009881
