video/luts/SPRITZ_Vandal.cube
TITLE "SPRITZ Vandal"
LUT_3D_SIZE 9
DOMAIN_MIN 0.0 0.0 0.0
DOMAIN_MAX 1.0 1.0 1.0
0.003269 0.002893 0.002200
0.104558 0.000182 0.000000
0.237273 0.000000 0.000000
0.391189 0.000000 0.000000
0.555779 0.000000 0.000000
0.720316 0.000000 0.000000
0.874076 0.000000 0.000000
1.000000 0.000000 0.000000
1.000000 0.000000 0.000000
0.000000 0.098356 0.000000
0.097968 0.096266 0.000000
0.231540 0.093798 0.000000
0.386049 0.091333 0.000000
0.550783 0.089184 0.000000
0.714946 0.087561 0.000000
0.867871 0.086539 0.000000
0.999239 0.086061 0.000000
1.000000 0.085956 0.000000
0.000000 0.225791 0.000000
0.092858 0.224334 0.000000
0.226981 0.222673 0.000000
0.381577 0.221109 0.000000
0.545736 0.219882 0.000000
0.708616 0.219133 0.000000
0.859685 0.218882 0.000000
0.988930 0.219031 0.000000
1.000000 0.219381 0.000000
0.000000 0.374931 0.000000
0.092460 0.373886 0.000000
0.226361 0.372728 0.000000
0.380029 0.371692 0.000000
0.542391 0.370962 0.000000
0.702626 0.370637 0.000000
0.850443 0.370716 0.000000
0.976262 0.371094 0.000000
1.000000 0.370134 0.000000
0.000000 0.532925 0.000000
0.099284 0.531887 0.000000
0.231864 0.530691 0.000000
0.383262 0.529542 0.000000
0.540588 0.527869 0.000000
0.694923 0.525552 0.000000
0.839163 0.523665 0.000000
0.963364 0.522270 0.000000
1.000000 0.521360 0.000000
0.009319 0.685604 0.000000
0.105569 0.684017 0.000000
0.231371 0.682024 0.000000
0.376742 0.679846 0.000000
0.531439 0.677689 0.000000
0.685152 0.675727 0.000000
0.827803 0.674086 0.000000
0.949814 0.672836 0.000000
1.000000 0.671993 0.000000
0.004823 0.824732 0.000000
0.102007 0.823038 0.000000
0.228466 0.820847 0.000000
0.373770 0.818356 0.000000
0.527382 0.815762 0.000000
0.678924 0.813256 0.000000
0.818520 0.811006 0.001060
0.937068 0.809149 0.007331
1.000000 0.807790 0.012620
0.009217 0.942204 0.000000
0.106531 0.939977 0.000000
0.232630 0.937031 0.000000
0.376748 0.933580 0.000000
0.528153 0.929858 0.007162
0.676486 0.926113 0.015865
0.812140 0.922602 0.025038
0.926525 0.919572 0.033792
1.000000 0.917261 0.041025
0.018392 1.000000 0.000000
0.115345 1.000000 0.002031
0.240542 1.000000 0.008417
0.382997 1.000000 0.016696
0.531871 1.000000 0.026626
0.676870 1.000000 0.037717
0.808649 1.000000 0.049191
0.919074 0.997200 0.059987
1.000000 0.993786 0.068820
0.002408 0.001955 0.104812
0.103795 0.000000 0.101777
0.236613 0.000000 0.097937
0.390609 0.000000 0.093706
0.555235 0.000000 0.089480
0.719757 0.000000 0.085594
0.873456 0.000000 0.082294
1.000000 0.000000 0.079725
1.000000 0.000000 0.077949
0.000000 0.097627 0.094941
0.097427 0.095595 0.092225
0.231065 0.093206 0.088865
0.385608 0.090837 0.085265
0.550330 0.088797 0.081790
0.714426 0.087288 0.078726
0.867239 0.086378 0.076256
0.998470 0.085999 0.074450
1.000000 0.085974 0.073283
0.000000 0.225279 0.083974
0.092640 0.223875 0.081858
0.226778 0.222287 0.079334
0.381346 0.220812 0.076776
0.545424 0.219684 0.074492
0.708166 0.219038 0.072697
0.859055 0.218888 0.071481
0.988103 0.219127 0.070807
1.000000 0.219548 0.070536
0.000000 0.374561 0.074947
0.092660 0.373562 0.073706
0.226512 0.372466 0.072378
0.380077 0.371505 0.071268
0.542274 0.370859 0.070606
0.702287 0.370622 0.070506
0.849843 0.370786 0.070940
0.975411 0.371128 0.071673
1.000000 0.369653 0.071384
0.000000 0.532561 0.070608
0.099978 0.531558 0.070477
0.232436 0.530410 0.070639
0.383646 0.529319 0.071311
0.539889 0.527355 0.071385
0.694233 0.525103 0.071442
0.838422 0.523280 0.072111
0.962529 0.521945 0.073194
1.000000 0.521084 0.074354
0.008724 0.685060 0.071387
0.105061 0.683489 0.071342
0.230941 0.681522 0.071671
0.376349 0.679376 0.072622
0.531020 0.677258 0.074345
0.684638 0.675340 0.076834
0.827132 0.673745 0.079892
0.948956 0.672538 0.083128
1.000000 0.671731 0.085990
0.004875 0.824155 0.073908
0.102093 0.822465 0.075257
0.228555 0.820282 0.077471
0.373806 0.817803 0.080695
0.527290 0.815226 0.084952
0.678629 0.812741 0.090086
0.817964 0.810514 0.095723
0.936230 0.808681 0.101265
1.000000 0.807343 0.105942
0.009905 0.941451 0.082121
0.107202 0.939215 0.084855
0.233235 0.936258 0.088933
0.377215 0.932798 0.094387
0.528398 0.929069 0.101116
0.676430 0.925323 0.108813
0.811727 0.921812 0.116931
0.925743 0.918786 0.124683
1.000000 0.916479 0.131090
0.019617 1.000000 0.092677
0.116511 1.000000 0.096581
0.241585 1.000000 0.102226
0.383835 1.000000 0.109549
0.532412 1.000000 0.118337
0.677031 1.000000 0.128159
0.808377 1.000000 0.138325
0.918364 0.996046 0.147893
1.000000 0.992614 0.155721
0.001319 0.000757 0.238845
0.102831 0.000000 0.235947
0.235778 0.000000 0.232237
0.389871 0.000000 0.228085
0.554539 0.000000 0.223854
0.719034 0.000000 0.219866
0.872645 0.000000 0.216381
1.000000 0.000000 0.213581
1.000000 0.000000 0.211580
0.000000 0.096705 0.229304
0.096756 0.094749 0.226613
0.230474 0.092465 0.223229
0.385057 0.090224 0.219523
0.549753 0.088328 0.215838
0.713754 0.086969 0.212463
0.866412 0.086206 0.209607
0.997459 0.085959 0.207391
1.000000 0.086037 0.205862
0.000000 0.224637 0.218169
0.092395 0.223304 0.215912
0.226546 0.221813 0.213146
0.381072 0.220455 0.210221
0.545034 0.219457 0.207445
0.707589 0.218947 0.205049
0.858234 0.218930 0.203172
0.987018 0.219288 0.201848
1.000000 0.219802 0.201029
0.000000 0.374101 0.208015
0.092966 0.373162 0.206429
0.226747 0.372149 0.204587
0.380170 0.371288 0.202793
0.542143 0.370752 0.201295
0.701858 0.370631 0.200248
0.849065 0.370908 0.199692
0.974398 0.370453 0.199367
1.000000 0.369055 0.199106
0.000000 0.532104 0.201301
0.100932 0.531147 0.200595
0.233225 0.530063 0.199942
0.384182 0.529049 0.199580
0.538999 0.526705 0.199107
0.693347 0.524537 0.199108
0.837459 0.522801 0.199608
0.961436 0.521546 0.200451
1.000000 0.520749 0.201366
0.008009 0.684357 0.199109
0.104454 0.682810 0.199045
0.230428 0.680876 0.199274
0.375876 0.678775 0.200003
0.530503 0.676709 0.201358
0.683985 0.674850 0.203341
0.826266 0.673317 0.205796
0.947835 0.672168 0.208408
1.000000 0.671407 0.210725
0.005013 0.823405 0.201012
0.102269 0.821721 0.202083
0.228729 0.819548 0.203852
0.373900 0.817086 0.206443
0.527207 0.814532 0.209884
0.678270 0.812075 0.214053
0.817253 0.809881 0.218644
0.935140 0.808080 0.223173
1.000000 0.806769 0.227001
0.010883 0.940463 0.207594
0.108150 0.938215 0.209806
0.234088 0.935245 0.213115
0.377879 0.931774 0.217555
0.528761 0.928039 0.223051
0.676388 0.924291 0.229355
0.811207 0.920783 0.236019
0.924732 0.917762 0.242394
1.000000 0.915461 0.247669
0.021301 1.000000 0.216161
0.118110 1.000000 0.219345
0.243016 1.000000 0.223958
0.384987 1.000000 0.229958
0.533165 1.000000 0.237174
0.677277 1.000000 0.245256
0.808045 0.998966 0.253632
0.917449 0.994532 0.261522
0.998690 0.991072 0.267975
0.000112 0.000000 0.393909
0.101763 0.000000 0.391130
0.234851 0.000000 0.387518
0.389048 0.000000 0.383395
0.553752 0.000000 0.379089
0.718205 0.000000 0.374913
0.871703 0.000000 0.371146
1.000000 0.000000 0.368019
1.000000 0.000000 0.365714
0.000000 0.095681 0.384616
0.096031 0.093816 0.381910
0.229835 0.091655 0.378443
0.384452 0.089564 0.374548
0.549109 0.087836 0.370549
0.712987 0.086654 0.366739
0.865457 0.086063 0.363366
0.996279 0.085970 0.360615
1.000000 0.086169 0.358621
0.000000 0.223934 0.373095
0.092169 0.222684 0.370629
0.226326 0.221307 0.367523
0.380792 0.220086 0.364105
0.544610 0.219241 0.360684
0.706935 0.218890 0.357518
0.857288 0.219029 0.354803
0.985758 0.219525 0.352665
1.000000 0.220147 0.351165
0.000000 0.373603 0.361405
0.093383 0.372736 0.359372
0.227072 0.371818 0.356873
0.380320 0.371073 0.354217
0.542023 0.370668 0.351674
0.701380 0.370682 0.349453
0.848173 0.371090 0.347681
0.973216 0.369715 0.346946
1.000000 0.368408 0.346662
0.000000 0.531601 0.351685
0.102104 0.530699 0.350265
0.234196 0.529689 0.348607
0.383504 0.528356 0.347190
0.538005 0.525982 0.346664
0.692343 0.523915 0.346509
0.836353 0.522280 0.346725
0.960167 0.521119 0.347212
1.000000 0.520398 0.347783
0.007268 0.683558 0.346665
0.103832 0.682039 0.346523
0.229905 0.680146 0.346562
0.375386 0.678097 0.346946
0.529949 0.676094 0.347778
0.683260 0.674306 0.349076
0.825279 0.672845 0.350739
0.946540 0.671765 0.352544
1.000000 0.671060 0.354166
0.005273 0.822540 0.347559
0.102565 0.820864 0.348246
0.229010 0.818705 0.349418
0.374077 0.816264 0.351183
0.527164 0.813739 0.353575
0.677891 0.811318 0.356519
0.816452 0.809163 0.359801
0.933888 0.807401 0.363066
1.000000 0.806123 0.365844
0.012124 0.939315 0.351978
0.109349 0.937054 0.353520
0.235166 0.934070 0.355853
0.378723 0.930588 0.359020
0.529242 0.926847 0.362978
0.676383 0.923098 0.367557
0.810634 0.919595 0.372431
0.923576 0.916582 0.377118
1.000000 0.914288 0.381009
0.023368 1.000000 0.358022
0.120071 1.000000 0.360304
0.244770 1.000000 0.363635
0.386405 1.000000 0.367997
0.534105 1.000000 0.373279
0.677613 1.000000 0.379227
0.807697 0.997234 0.385417
0.916411 0.992768 0.391256
0.997049 0.989254 0.396015
0.000000 0.000000 0.559559
0.100679 0.000000 0.556861
0.233908 0.000000 0.553291
0.388203 0.000000 0.549124
0.552934 0.000000 0.544655
0.717329 0.000000 0.540194
0.870694 0.000000 0.536047
1.000000 0.000000 0.532498
1.000000 0.000000 0.529813
0.000000 0.094639 0.550369
0.095319 0.092872 0.547597
0.229203 0.090846 0.543974
0.383845 0.088918 0.539798
0.548446 0.087372 0.535376
0.712182 0.086381 0.531016
0.864436 0.085976 0.527007
0.995007 0.086049 0.523612
1.000000 0.086379 0.521064
0.000000 0.223230 0.538208
0.091997 0.222072 0.535467
0.226149 0.220817 0.531926
0.380539 0.219745 0.527899
0.544189 0.219065 0.523698
0.706255 0.218888 0.519618
0.856282 0.219193 0.515924
0.984404 0.219839 0.512841
1.000000 0.220579 0.510557
0.000000 0.373111 0.524599
0.093904 0.372321 0.522033
0.227484 0.371508 0.518760
0.380532 0.370890 0.515097
0.541931 0.370625 0.511346
0.700892 0.370785 0.507780
0.847097 0.370823 0.505007
0.971943 0.368978 0.504406
1.000000 0.367770 0.504032
0.001403 0.531094 0.511362
0.103437 0.530253 0.509124
0.235303 0.529323 0.506316
0.382405 0.527517 0.504675
0.536985 0.525244 0.504034
0.691297 0.523287 0.503603
0.835182 0.521764 0.503411
0.958807 0.520706 0.503425
1.000000 0.520068 0.503557
0.006582 0.682721 0.504036
0.103263 0.681233 0.503742
0.229430 0.679385 0.503489
0.374932 0.677394 0.503397
0.529410 0.675462 0.503556
0.682519 0.673751 0.504003
0.824242 0.672371 0.504704
0.945159 0.671366 0.505547
1.000000 0.670723 0.506348
0.005671 0.821622 0.503497
0.102991 0.819955 0.503700
0.229408 0.817813 0.504139
0.374346 0.815396 0.504906
0.527180 0.812904 0.506053
0.677531 0.810523 0.507561
0.815623 0.808412 0.509321
0.932560 0.806694 0.511129
1.000000 0.805452 0.512700
0.013584 0.938081 0.505277
0.110752 0.935808 0.506025
0.236426 0.932812 0.507213
0.379716 0.929320 0.508896
0.529828 0.925574 0.511080
0.676432 0.921827 0.513681
0.810057 0.918330 0.516513
0.922360 0.915326 0.519280
1.000000 0.913041 0.521601
0.025720 1.000000 0.508359
0.122298 1.000000 0.509597
0.246762 1.000000 0.511449
0.388019 1.000000 0.513935
0.535190 1.000000 0.517011
0.678034 1.000000 0.520536
0.807369 0.995373 0.524247
0.915328 0.990865 0.527754
0.995306 0.987299 0.530575
0.000000 0.000000 0.725306
0.099652 0.000000 0.722640
0.233013 0.000000 0.719047
0.387396 0.000000 0.714756
0.552139 0.000000 0.710039
0.716463 0.000000 0.705206
0.869682 0.000000 0.700592
1.000000 0.000000 0.696549
1.000000 0.000000 0.693426
0.000000 0.093650 0.716049
0.094671 0.091984 0.713158
0.228625 0.090095 0.709309
0.383280 0.088332 0.704769
0.547812 0.086972 0.699835
0.711390 0.086174 0.694832
0.863415 0.085958 0.690101
0.993723 0.086200 0.685986
1.000000 0.086662 0.682827
0.000000 0.222576 0.703011
0.091895 0.221510 0.699938
0.226032 0.220381 0.695889
0.380333 0.219459 0.691165
0.543800 0.218948 0.686091
0.705593 0.218945 0.681003
0.855280 0.219420 0.676241
0.983043 0.220217 0.672136
1.000000 0.221075 0.669007
0.000000 0.372662 0.687193
0.094503 0.371950 0.684035
0.227963 0.371244 0.679911
0.380797 0.370753 0.675151
0.541878 0.370631 0.670098
0.700428 0.370939 0.665089
0.845872 0.370014 0.662457
0.970658 0.368295 0.661740
1.000000 0.367189 0.661206
0.002964 0.530620 0.670120
0.104856 0.529839 0.667002
0.236484 0.528993 0.662967
0.381366 0.526711 0.662077
0.536009 0.524543 0.661210
0.690276 0.522699 0.660389
0.834020 0.521290 0.659679
0.957441 0.520338 0.659122
1.000000 0.519785 0.658738
0.006006 0.681900 0.661213
0.102795 0.680445 0.660697
0.229043 0.678644 0.660057
0.374550 0.676715 0.659378
0.528925 0.674855 0.658740
0.681816 0.673225 0.658212
0.823224 0.671928 0.657833
0.943780 0.671000 0.657607
1.000000 0.670420 0.657505
0.006195 0.820708 0.658870
0.103533 0.819053 0.658512
0.229907 0.816929 0.658114
0.374701 0.814538 0.657763
0.527263 0.812082 0.657533
0.677217 0.809744 0.657472
0.814822 0.807679 0.657582
0.931243 0.806006 0.657820
1.000000 0.804802 0.658095
0.015184 0.936841 0.657663
0.112285 0.934556 0.657537
0.237801 0.931549 0.657470
0.380807 0.928049 0.657543
0.530492 0.924300 0.657812
0.676537 0.920557 0.658293
0.809517 0.917068 0.658945
0.921162 0.914074 0.659669
1.000000 0.911798 0.660320
0.028224 1.000000 0.657503
0.124666 1.000000 0.657612
0.248879 1.000000 0.657871
0.389741 1.000000 0.658346
0.536363 1.000000 0.659070
0.678522 0.998637 0.660018
0.807087 0.993498 0.661092
0.914272 0.988919 0.662079
0.993579 0.985356 0.662901
0.000000 0.000000 0.880638
0.098744 0.000000 0.877956
0.232219 0.000000 0.874280
0.386673 0.000000 0.869802
0.551417 0.000000 0.864773
0.715662 0.000000 0.859509
0.868732 0.000000 0.854383
1.000000 0.000000 0.849809
1.000000 0.000000 0.846223
0.000000 0.092773 0.871161
0.094122 0.091203 0.868110
0.228133 0.089445 0.863985
0.382789 0.087840 0.859028
0.547243 0.086656 0.853532
0.710661 0.086042 0.847843
0.862459 0.086005 0.842356
0.992510 0.086406 0.837497
1.000000 0.086994 0.833711
0.000000 0.222009 0.857083
0.091865 0.221031 0.853648
0.225979 0.220021 0.849054
0.380183 0.219242 0.843599
0.543467 0.218891 0.837622
0.704990 0.219053 0.831504
0.854346 0.219690 0.825659
0.981761 0.220629 0.820526
1.000000 0.221600 0.816552
0.000000 0.372279 0.838931
0.095137 0.371642 0.835165
0.228474 0.371037 0.830173
0.381094 0.370668 0.824305
0.541864 0.370681 0.817943
0.700016 0.371130 0.811496
0.844727 0.369303 0.809879
0.969445 0.367705 0.808973
1.000000 0.366696 0.808225
0.004512 0.530206 0.817971
0.106264 0.529483 0.813976
0.235526 0.528204 0.810406
0.380447 0.525988 0.809412
0.535134 0.523920 0.808230
0.689346 0.522185 0.806939
0.832941 0.520886 0.805642
0.956157 0.520035 0.804460
1.000000 0.519564 0.803523
0.005566 0.681147 0.808236
0.102449 0.679724 0.807446
0.228761 0.677970 0.806357
0.374259 0.676099 0.805025
0.528522 0.674310 0.803530
0.681190 0.672758 0.801972
0.822287 0.671541 0.800471
0.942491 0.670688 0.799148
1.000000 0.670169 0.798124
0.006802 0.819857 0.803860
0.104147 0.818213 0.802907
0.230469 0.816108 0.801631
0.375112 0.813745 0.800122
0.527402 0.811324 0.798482
0.676966 0.809028 0.796827
0.814097 0.807009 0.795274
0.930019 0.805381 0.793935
1.000000 0.804214 0.792917
0.016812 0.935673 0.799537
0.113840 0.933378 0.798516
0.239194 0.930362 0.797175
0.381918 0.926857 0.795622
0.531184 0.923108 0.793969
0.676689 0.919369 0.792332
0.809046 0.915890 0.790815
0.920057 0.912906 0.789510
1.000000 0.910638 0.788504
0.030709 1.000000 0.796084
0.127013 1.000000 0.795056
0.250977 1.000000 0.793719
0.391453 1.000000 0.792187
0.537542 1.000000 0.790569
0.679041 0.996903 0.788958
0.806868 0.991724 0.787408
0.913308 0.987089 0.785888
0.991975 0.983548 0.784792
0.000000 0.000000 1.000000
0.098000 0.000000 1.000000
0.231568 0.000000 1.000000
0.386075 0.000000 1.000000
0.550810 0.000000 0.998454
0.714976 0.000000 0.992754
0.867908 0.000000 0.987124
0.999284 0.000000 0.982037
1.000000 0.000000 0.978011
0.000000 0.092054 1.000000
0.093694 0.090568 1.000000
0.227747 0.088925 0.997607
0.382394 0.087459 0.992229
0.546772 0.086429 0.986182
0.710040 0.085976 0.979834
0.861632 0.086095 0.973630
0.991453 0.086636 0.968073
1.000000 0.087333 0.963703
0.000000 0.221554 0.990099
0.091891 0.220654 0.986310
0.225976 0.219748 0.981192
0.380088 0.219095 0.975043
0.543202 0.218883 0.968218
0.704482 0.219191 0.961140
0.853542 0.219968 0.954295
0.980647 0.221032 0.948218
1.000000 0.222101 0.943470
0.000000 0.371979 0.969719
0.095742 0.371408 0.965386
0.228964 0.370892 0.959588
0.381390 0.370629 0.952698
0.541880 0.370760 0.945136
0.699319 0.370833 0.938422
0.843738 0.368725 0.937323
0.968388 0.367234 0.936187
1.000000 0.366311 0.935204
0.005920 0.529872 0.945170
0.107543 0.529200 0.940373
0.234673 0.527526 0.937949
0.379696 0.525387 0.936746
0.534410 0.523408 0.935211
0.688560 0.521770 0.933430
0.832016 0.520568 0.931544
0.955044 0.519807 0.929752
1.000000 0.519407 0.928281
0.005266 0.680509 0.935219
0.102223 0.679115 0.934141
0.228582 0.677402 0.932595
0.374061 0.675585 0.930618
0.528214 0.673859 0.928291
0.680677 0.672376 0.925753
0.821491 0.671230 0.923194
0.941379 0.670443 0.920845
1.000000 0.669978 0.918964
0.007419 0.819126 0.928814
0.104763 0.817493 0.927290
0.231029 0.815406 0.925182
0.375529 0.813068 0.922583
0.527571 0.810679 0.919628
0.676784 0.808421 0.916497
0.813490 0.806443 0.913412
0.928969 0.804854 0.910628
1.000000 0.803721 0.908425
0.018322 0.934658 0.921546
0.115279 0.932357 0.919691
0.240483 0.929334 0.917169
0.382949 0.925825 0.914116
0.531841 0.922077 0.910701
0.676862 0.918344 0.907127
0.808665 0.914874 0.903631
0.919116 0.911899 0.900479
1.000000 0.909637 0.897962
0.032969 1.000000 0.915041
0.129145 1.000000 0.912966
0.252883 1.000000 0.910166
0.393012 1.000000 0.906800
0.538626 1.000000 0.903048
0.679541 0.995394 0.899106
0.806718 0.990170 0.895144
0.912493 0.985514 0.891395
0.990600 0.981993 0.888591
0.000000 0.000000 1.000000
0.097458 0.000000 1.000000
0.231092 0.000000 1.000000
0.385634 0.000000 1.000000
0.550356 0.000000 1.000000
0.714456 0.000000 1.000000
0.867275 0.000000 1.000000
0.998515 0.000000 1.000000
1.000000 0.000000 1.000000
0.000000 0.091528 1.000000
0.093396 0.090108 1.000000
0.227475 0.088553 1.000000
0.382111 0.087195 1.000000
0.546423 0.086285 1.000000
0.709572 0.085957 1.000000
0.860999 0.086196 1.000000
0.990638 0.086845 1.000000
1.000000 0.087626 1.000000
0.000000 0.221228 1.000000
0.091944 0.220388 1.000000
0.226001 0.219564 1.000000
0.380037 0.219008 1.000000
0.543015 0.218904 1.000000
0.704101 0.219324 1.000000
0.852928 0.220209 1.000000
0.979790 0.221371 1.000000
1.000000 0.222515 1.000000
0.000000 0.371768 1.000000
0.096242 0.371248 1.000000
0.229370 0.370801 1.000000
0.381641 0.370621 1.000000
0.541910 0.370844 1.000000
0.698578 0.370324 1.000000
0.842983 0.368307 1.000000
0.967574 0.366899 1.000000
1.000000 0.366043 1.000000
0.007042 0.529631 1.000000
0.108563 0.528999 1.000000
0.234054 0.527022 1.000000
0.379148 0.524942 1.000000
0.533876 0.523033 1.000000
0.687972 0.521470 1.000000
0.831313 0.520344 1.000000
0.954189 0.519653 1.000000
1.000000 0.519310 1.000000
0.005087 0.680028 1.000000
0.102096 0.678657 1.000000
0.228485 0.676977 1.000000
0.373942 0.675202 1.000000
0.528003 0.673525 1.000000
0.680300 0.672097 1.000000
0.820890 0.671006 1.000000
0.940529 0.670272 1.000000
1.000000 0.669849 1.000000
0.007949 0.818568 1.000000
0.105288 0.816945 1.000000
0.231506 0.814872 1.000000
0.375888 0.812554 1.000000
0.527731 0.810191 1.000000
0.676667 0.807963 1.000000
0.813039 0.806019 1.000000
0.928170 0.804461 0.999345
1.000000 0.803353 0.996193
0.019544 0.933878 1.000000
0.116441 0.931572 1.000000
0.241523 0.928545 1.000000
0.383785 0.925034 1.000000
0.532379 0.921288 0.999448
0.677021 0.917560 0.994324
0.808392 0.914097 0.989248
0.918405 0.911129 0.984620
1.000000 0.908871 0.980893
0.034771 1.000000 1.000000
0.130844 1.000000 1.000000
0.254402 1.000000 0.998686
0.394257 1.000000 0.993852
0.539499 0.999698 0.988395
0.679957 0.994231 0.982591
0.806634 0.988954 0.976654
0.911881 0.984313 0.971207
0.989555 0.980809 0.967065
