video/luts/SPRITZ_Vandal.cube
TITLE "SPRITZ Vandal"
LUT_3D_SIZE 33
DOMAIN_MIN 0.0 0.0 0.0
DOMAIN_MAX 1.0 1.0 1.0
0.003269 0.002893 0.002200
0.025098 0.002295 0.001512
0.049358 0.001638 0.000751
0.075897 0.000932 0.000000
0.104558 0.000182 0.000000
0.135185 0.000000 0.000000
0.167619 0.000000 0.000000
0.201702 0.000000 0.000000
0.237273 0.000000 0.000000
0.274170 0.000000 0.000000
0.312232 0.000000 0.000000
0.351293 0.000000 0.000000
0.391189 0.000000 0.000000
0.431753 0.000000 0.000000
0.472818 0.000000 0.000000
0.514216 0.000000 0.000000
0.555779 0.000000 0.000000
0.597339 0.000000 0.000000
0.638727 0.000000 0.000000
0.679775 0.000000 0.000000
0.720316 0.000000 0.000000
0.760181 0.000000 0.000000
0.799207 0.000000 0.000000
0.837226 0.000000 0.000000
0.874076 0.000000 0.000000
0.909594 0.000000 0.000000
0.943619 0.000000 0.000000
0.975991 0.000000 0.000000
1.000000 0.000000 0.000000
1.000000 0.000000 0.000000
1.000000 0.000000 0.000000
1.000000 0.000000 0.000000
1.000000 0.000000 0.000000
0.001456 0.023298 0.000000
0.023332 0.022729 0.000000
0.047644 0.022106 0.000000
0.074236 0.021436 0.000000
0.102953 0.020727 0.000000
0.133635 0.019985 0.000000
0.166124 0.019217 0.000000
0.200260 0.018432 0.000000
0.235883 0.017634 0.000000
0.272829 0.016832 0.000000
0.310934 0.016030 0.000000
0.350035 0.015236 0.000000
0.389964 0.014455 0.000000
0.430556 0.013693 0.000000
0.471643 0.012953 0.000000
0.513056 0.012241 0.000000
0.554627 0.011560 0.000000
0.596188 0.010914 0.000000
0.637570 0.010306 0.000000
0.678605 0.009737 0.000000
0.719126 0.009210 0.000000
0.758966 0.008725 0.000000
0.797959 0.008283 0.000000
0.835941 0.007884 0.000000
0.872749 0.007527 0.000000
0.908220 0.007211 0.000000
0.942195 0.006936 0.000000
0.974516 0.006697 0.000000
1.000000 0.006494 0.000000
1.000000 0.006324 0.000000
1.000000 0.006183 0.000000
1.000000 0.006069 0.000000
1.000000 0.005978 0.000000
0.000000 0.046089 0.000000
0.021497 0.045553 0.000000
0.045863 0.044967 0.000000
0.072512 0.044337 0.000000
0.101286 0.043672 0.000000
0.132025 0.042976 0.000000
0.164571 0.042258 0.000000
0.198762 0.041523 0.000000
0.234436 0.040780 0.000000
0.271429 0.040033 0.000000
0.309578 0.039288 0.000000
0.348716 0.038553 0.000000
0.388677 0.037831 0.000000
0.429293 0.037129 0.000000
0.470397 0.036450 0.000000
0.511820 0.035798 0.000000
0.553394 0.035179 0.000000
0.594949 0.034593 0.000000
0.636318 0.034044 0.000000
0.677332 0.033534 0.000000
0.717824 0.033065 0.000000
0.757628 0.032637 0.000000
0.796579 0.032250 0.000000
0.834512 0.031904 0.000000
0.871266 0.031599 0.000000
0.906679 0.031333 0.000000
0.940593 0.031104 0.000000
0.972850 0.030910 0.000000
1.000000 0.030749 0.000000
1.000000 0.030618 0.000000
1.000000 0.030513 0.000000
1.000000 0.030431 0.000000
1.000000 0.030369 0.000000
0.000000 0.071151 0.000000
0.019649 0.070649 0.000000
0.044070 0.070102 0.000000
0.070776 0.069515 0.000000
0.099607 0.068894 0.000000
0.130404 0.068247 0.000000
0.163006 0.067581 0.000000
0.197250 0.066900 0.000000
0.232974 0.066212 0.000000
0.270012 0.065523 0.000000
0.308201 0.064838 0.000000
0.347372 0.064163 0.000000
0.387360 0.063503 0.000000
0.427996 0.062863 0.000000
0.469111 0.062247 0.000000
0.510537 0.061659 0.000000
0.552104 0.061102 0.000000
0.593645 0.060578 0.000000
0.634990 0.060091 0.000000
0.675972 0.059642 0.000000
0.716425 0.059233 0.000000
0.756181 0.058863 0.000000
0.795077 0.058532 0.000000
0.832949 0.058241 0.000000
0.869637 0.057989 0.000000
0.904979 0.057773 0.000000
0.938818 0.057592 0.000000
0.970998 0.057444 0.000000
1.000000 0.057325 0.000000
1.000000 0.057233 0.000000
1.000000 0.057165 0.000000
1.000000 0.057116 0.000000
1.000000 0.057084 0.000000
0.000000 0.098356 0.000000
0.017844 0.097891 0.000000
0.042319 0.097383 0.000000
0.069080 0.096839 0.000000
0.097968 0.096266 0.000000
0.128821 0.095669 0.000000
0.161476 0.095054 0.000000
0.195770 0.094429 0.000000
0.231540 0.093798 0.000000
0.268620 0.093168 0.000000
0.306842 0.092543 0.000000
0.346041 0.091930 0.000000
0.386049 0.091333 0.000000
0.426696 0.090756 0.000000
0.467813 0.090203 0.000000
0.509232 0.089678 0.000000
0.550783 0.089184 0.000000
0.592298 0.088724 0.000000
0.633609 0.088299 0.000000
0.674546 0.087911 0.000000
0.714946 0.087561 0.000000
0.754641 0.087249 0.000000
0.793468 0.086976 0.000000
0.831265 0.086739 0.000000
0.867871 0.086539 0.000000
0.903127 0.086374 0.000000
0.936877 0.086241 0.000000
0.968966 0.086137 0.000000
0.999239 0.086061 0.000000
1.000000 0.086008 0.000000
1.000000 0.085975 0.000000
1.000000 0.085959 0.000000
1.000000 0.085956 0.000000
0.000000 0.127572 0.000000
0.016138 0.127143 0.000000
0.040665 0.126675 0.000000
0.067480 0.126175 0.000000
0.096421 0.125648 0.000000
0.127325 0.125101 0.000000
0.160030 0.124539 0.000000
0.194369 0.123968 0.000000
0.230179 0.123394 0.000000
0.267293 0.122823 0.000000
0.305543 0.122258 0.000000
0.344761 0.121706 0.000000
0.384778 0.121171 0.000000
0.425427 0.120656 0.000000
0.466536 0.120166 0.000000
0.507936 0.119704 0.000000
0.549459 0.119273 0.000000
0.590935 0.118874 0.000000
0.632196 0.118510 0.000000
0.673075 0.118182 0.000000
0.713405 0.117891 0.000000
0.753024 0.117636 0.000000
0.791766 0.117417 0.000000
0.829471 0.117234 0.000000
0.865980 0.117085 0.000000
0.901134 0.116968 0.000000
0.934779 0.116881 0.000000
0.966760 0.116821 0.000000
0.996926 0.116785 0.000000
1.000000 0.116770 0.000000
1.000000 0.116772 0.000000
1.000000 0.116787 0.000000
1.000000 0.116812 0.000000
0.000000 0.158655 0.000000
0.014590 0.158261 0.000000
0.039166 0.157832 0.000000
0.066030 0.157375 0.000000
0.095019 0.156894 0.000000
0.125969 0.156395 0.000000
0.158716 0.155885 0.000000
0.193094 0.155368 0.000000
0.228936 0.154849 0.000000
0.266075 0.154335 0.000000
0.304342 0.153829 0.000000
0.343569 0.153336 0.000000
0.383586 0.152861 0.000000
0.424223 0.152406 0.000000
0.465310 0.151977 0.000000
0.506678 0.151575 0.000000
0.548157 0.151204 0.000000
0.589579 0.150864 0.000000
0.630774 0.150558 0.000000
0.671578 0.150287 0.000000
0.711823 0.150051 0.000000
0.751347 0.149850 0.000000
0.789987 0.149684 0.000000
0.827583 0.149551 0.000000
0.863976 0.149450 0.000000
0.899010 0.149379 0.000000
0.932532 0.149335 0.000000
0.964388 0.149315 0.000000
0.994430 0.149317 0.000000
1.000000 0.149337 0.000000
1.000000 0.149371 0.000000
1.000000 0.149415 0.000000
1.000000 0.149466 0.000000
0.000000 0.191449 0.000000
0.013257 0.191090 0.000000
0.037876 0.190699 0.000000
0.064783 0.190282 0.000000
0.093814 0.189845 0.000000
0.124803 0.189394 0.000000
0.157584 0.188932 0.000000
0.191991 0.188466 0.000000
0.227855 0.188000 0.000000
0.265008 0.187540 0.000000
0.303281 0.187089 0.000000
0.342504 0.186652 0.000000
0.382506 0.186233 0.000000
0.423118 0.185836 0.000000
0.464169 0.185463 0.000000
0.505488 0.185118 0.000000
0.546907 0.184802 0.000000
0.588257 0.184517 0.000000
0.629369 0.184265 0.000000
0.670079 0.184047 0.000000
0.710220 0.183862 0.000000
0.749630 0.183711 0.000000
0.788148 0.183592 0.000000
0.825614 0.183505 0.000000
0.861872 0.183448 0.000000
0.896768 0.183418 0.000000
0.930147 0.183413 0.000000
0.961861 0.183430 0.000000
0.991761 0.183466 0.000000
1.000000 0.183518 0.000000
1.000000 0.183580 0.000000
1.000000 0.183650 0.000000
1.000000 0.183724 0.000000
0.000000 0.225791 0.000000
0.012195 0.225464 0.000000
0.036851 0.225108 0.000000
0.063794 0.224730 0.000000
0.092858 0.224334 0.000000
0.123876 0.223925 0.000000
0.156682 0.223509 0.000000
0.191107 0.223090 0.000000
0.226981 0.222673 0.000000
0.264136 0.222262 0.000000
0.302400 0.221862 0.000000
0.341604 0.221477 0.000000
0.381577 0.221109 0.000000
0.422147 0.220764 0.000000
0.463143 0.220442 0.000000
0.504396 0.220148 0.000000
0.545736 0.219882 0.000000
0.586995 0.219647 0.000000
0.628004 0.219444 0.000000
0.668599 0.219272 0.000000
0.708616 0.219133 0.000000
0.747891 0.219025 0.000000
0.786266 0.218949 0.000000
0.823583 0.218902 0.000000
0.859685 0.218882 0.000000
0.894421 0.218888 0.000000
0.927639 0.218917 0.000000
0.959190 0.218966 0.000000
0.988930 0.219031 0.000000
1.000000 0.219109 0.000000
1.000000 0.219196 0.000000
1.000000 0.219288 0.000000
1.000000 0.219381 0.000000
0.000000 0.261504 0.000000
0.011457 0.261205 0.000000
0.036142 0.260881 0.000000
0.063112 0.260537 0.000000
0.092200 0.260178 0.000000
0.123237 0.259809 0.000000
0.156055 0.259433 0.000000
0.190485 0.259056 0.000000
0.226356 0.258683 0.000000
0.263497 0.258316 0.000000
0.301738 0.257961 0.000000
0.340907 0.257621 0.000000
0.380832 0.257299 0.000000
0.421341 0.256998 0.000000
0.462265 0.256722 0.000000
0.503432 0.256471 0.000000
0.544672 0.256249 0.000000
0.585819 0.256056 0.000000
0.626704 0.255894 0.000000
0.667163 0.255762 0.000000
0.707033 0.255661 0.000000
0.746152 0.255590 0.000000
0.784361 0.255548 0.000000
0.821506 0.255534 0.000000
0.857431 0.255546 0.000000
0.891985 0.255581 0.000000
0.925020 0.255638 0.000000
0.956389 0.255712 0.000000
0.985948 0.255800 0.000000
1.000000 0.255899 0.000000
1.000000 0.256005 0.000000
1.000000 0.256114 0.000000
1.000000 0.256222 0.000000
0.000000 0.298398 0.000000
0.011094 0.298125 0.000000
0.035799 0.297829 0.000000
0.062786 0.297515 0.000000
0.091886 0.297188 0.000000
0.122930 0.296852 0.000000
0.155747 0.296511 0.000000
0.190168 0.296170 0.000000
0.226020 0.295834 0.000000
0.263132 0.295505 0.000000
0.301332 0.295187 0.000000
0.340447 0.294885 0.000000
0.380305 0.294601 0.000000
0.420735 0.294337 0.000000
0.461564 0.294098 0.000000
0.502624 0.293883 0.000000
0.543743 0.293696 0.000000
0.584755 0.293537 0.000000
0.625493 0.293407 0.000000
0.665793 0.293307 0.000000
0.705492 0.293235 0.000000
0.744431 0.293193 0.000000
0.782453 0.293177 0.000000
0.819402 0.293188 0.000000
0.855126 0.293223 0.000000
0.889477 0.293280 0.000000
0.922307 0.293356 0.000000
0.953472 0.293448 0.000000
0.982832 0.293553 0.000000
1.000000 0.293666 0.000000
1.000000 0.293786 0.000000
1.000000 0.293906 0.000000
1.000000 0.294024 0.000000
0.000000 0.336277 0.000000
0.011153 0.336024 0.000000
0.035868 0.335751 0.000000
0.062860 0.335462 0.000000
0.091960 0.335160 0.000000
0.122996 0.334852 0.000000
0.155798 0.334539 0.000000
0.190194 0.334227 0.000000
0.226010 0.333920 0.000000
0.263075 0.333621 0.000000
0.301215 0.333333 0.000000
0.340257 0.333060 0.000000
0.380028 0.332805 0.000000
0.420356 0.332570 0.000000
0.461070 0.332357 0.000000
0.501999 0.332170 0.000000
0.542975 0.332008 0.000000
0.583828 0.331873 0.000000
0.624395 0.331766 0.000000
0.664512 0.331687 0.000000
0.704016 0.331636 0.000000
0.742751 0.331612 0.000000
0.780560 0.331614 0.000000
0.817290 0.331641 0.000000
0.852790 0.331690 0.000000
0.886914 0.331760 0.000000
0.919518 0.331847 0.000000
0.950458 0.331949 0.000000
0.979597 0.332062 0.000000
1.000000 0.332183 0.000000
1.000000 0.332308 0.000000
1.000000 0.332434 0.000000
1.000000 0.332557 0.000000
0.000000 0.374931 0.000000
0.011676 0.374694 0.000000
0.036389 0.374438 0.000000
0.063374 0.374167 0.000000
0.092460 0.373886 0.000000
0.123474 0.373597 0.000000
0.156245 0.373305 0.000000
0.190598 0.373014 0.000000
0.226361 0.372728 0.000000
0.263359 0.372449 0.000000
0.301419 0.372181 0.000000
0.340367 0.371928 0.000000
0.380029 0.371692 0.000000
0.420234 0.371475 0.000000
0.460809 0.371280 0.000000
0.501584 0.371109 0.000000
0.542391 0.370962 0.000000
0.583062 0.370841 0.000000
0.623433 0.370746 0.000000
0.663341 0.370679 0.000000
0.702626 0.370637 0.000000
0.741132 0.370621 0.000000
0.778703 0.370630 0.000000
0.815190 0.370662 0.000000
0.850443 0.370716 0.000000
0.884317 0.370788 0.000000
0.916671 0.370878 0.000000
0.947365 0.370981 0.000000
0.976262 0.371094 0.000000
1.000000 0.371215 0.000000
1.000000 0.370812 0.000000
1.000000 0.370451 0.000000
1.000000 0.370134 0.000000
0.000000 0.414146 0.000000
0.012697 0.413919 0.000000
0.037397 0.413675 0.000000
0.064361 0.413415 0.000000
0.093419 0.413146 0.000000
0.124395 0.412869 0.000000
0.157117 0.412589 0.000000
0.191411 0.412310 0.000000
0.227100 0.412035 0.000000
0.264012 0.411767 0.000000
0.301971 0.411510 0.000000
0.340803 0.411266 0.000000
0.380334 0.411039 0.000000
0.420391 0.410829 0.000000
0.460804 0.410640 0.000000
0.501401 0.410474 0.000000
0.542014 0.410330 0.000000
0.582478 0.410212 0.000000
0.622628 0.410118 0.000000
0.662302 0.410050 0.000000
0.701343 0.410006 0.000000
0.739594 0.409988 0.000000
0.776904 0.409992 0.000000
0.813122 0.410019 0.000000
0.848103 0.410066 0.000000
0.881675 0.409961 0.000000
0.913740 0.409446 0.000000
0.944273 0.408971 0.000000
0.973122 0.408537 0.000000
1.000000 0.408144 0.000000
1.000000 0.407791 0.000000
1.000000 0.407478 0.000000
1.000000 0.407204 0.000000
0.000000 0.453700 0.000000
0.014247 0.453478 0.000000
0.038920 0.453237 0.000000
0.065850 0.452982 0.000000
0.094864 0.452717 0.000000
0.125786 0.452444 0.000000
0.158442 0.452167 0.000000
0.192656 0.451891 0.000000
0.228253 0.451617 0.000000
0.265058 0.451350 0.000000
0.302894 0.451092 0.000000
0.341587 0.450847 0.000000
0.380964 0.450616 0.000000
0.420851 0.450402 0.000000
0.461076 0.450208 0.000000
0.501470 0.450034 0.000000
0.541865 0.449882 0.000000
0.582096 0.449753 0.000000
0.621999 0.449648 0.000000
0.661415 0.449567 0.000000
0.700185 0.449510 0.000000
0.738157 0.449476 0.000000
0.774826 0.448908 0.000000
0.810553 0.448344 0.000000
0.845205 0.447816 0.000000
0.878625 0.447324 0.000000
0.910658 0.446869 0.000000
0.941152 0.446452 0.000000
0.969953 0.446071 0.000000
0.996911 0.445727 0.000000
1.000000 0.445420 0.000000
1.000000 0.445148 0.000000
1.000000 0.444911 0.000000
0.000000 0.493368 0.000000
0.016347 0.493144 0.000000
0.040980 0.492901 0.000000
0.067861 0.492643 0.000000
0.096815 0.492373 0.000000
0.127665 0.492095 0.000000
0.160237 0.491812 0.000000
0.194353 0.491527 0.000000
0.229837 0.491245 0.000000
0.266513 0.490967 0.000000
0.304205 0.490698 0.000000
0.342737 0.490439 0.000000
0.381936 0.490193 0.000000
0.421628 0.489963 0.000000
0.461642 0.489750 0.000000
0.501809 0.489557 0.000000
0.541960 0.489384 0.000000
0.581933 0.489233 0.000000
0.621269 0.488907 0.000000
0.659758 0.488283 0.000000
0.697789 0.487686 0.000000
0.735205 0.487118 0.000000
0.771845 0.486581 0.000000
0.807553 0.486076 0.000000
0.842173 0.485605 0.000000
0.875550 0.485167 0.000000
0.907529 0.484762 0.000000
0.937961 0.484392 0.000000
0.966693 0.484056 0.000000
0.993578 0.483753 0.000000
1.000000 0.483483 0.000000
1.000000 0.483245 0.000000
1.000000 0.483038 0.000000
0.000000 0.532925 0.000000
0.019009 0.532692 0.000000
0.043589 0.532439 0.000000
0.070406 0.532170 0.000000
0.099284 0.531887 0.000000
0.130046 0.531594 0.000000
0.162515 0.531295 0.000000
0.196513 0.530993 0.000000
0.231864 0.530691 0.000000
0.268390 0.530392 0.000000
0.305915 0.530099 0.000000
0.344264 0.529815 0.000000
0.383262 0.529542 0.000000
0.422735 0.529283 0.000000
0.462514 0.529040 0.000000
0.501618 0.528500 0.000000
0.540588 0.527869 0.000000
0.579563 0.527256 0.000000
0.618384 0.526664 0.000000
0.656890 0.526095 0.000000
0.694923 0.525552 0.000000
0.732324 0.525036 0.000000
0.768934 0.524549 0.000000
0.804599 0.524092 0.000000
0.839163 0.523665 0.000000
0.872472 0.523269 0.000000
0.904375 0.522905 0.000000
0.934721 0.522572 0.000000
0.963364 0.522270 0.000000
0.990155 0.521999 0.000000
1.000000 0.521757 0.000000
1.000000 0.521544 0.000000
1.000000 0.521360 0.000000
0.000127 0.572146 0.000000
0.022239 0.571899 0.000000
0.046752 0.571629 0.000000
0.073490 0.571340 0.000000
0.102276 0.571035 0.000000
0.132931 0.570719 0.000000
0.165279 0.570393 0.000000
0.199141 0.570063 0.000000
0.234338 0.569730 0.000000
0.270694 0.569398 0.000000
0.308031 0.569070 0.000000
0.345897 0.568689 0.000000
0.383355 0.568068 0.000000
0.421440 0.567451 0.000000
0.459994 0.566841 0.000000
0.498856 0.566243 0.000000
0.537868 0.565659 0.000000
0.576868 0.565092 0.000000
0.615697 0.564544 0.000000
0.654195 0.564018 0.000000
0.692203 0.563516 0.000000
0.729563 0.563039 0.000000
0.766119 0.562589 0.000000
0.801715 0.562166 0.000000
0.836198 0.561772 0.000000
0.869415 0.561407 0.000000
0.901217 0.561070 0.000000
0.931457 0.560763 0.000000
0.959987 0.560485 0.000000
0.986664 0.560235 0.000000
1.000000 0.560013 0.000000
1.000000 0.559817 0.000000
1.000000 0.559648 0.000000
0.003985 0.610813 0.000000
0.026029 0.610544 0.000000
0.050462 0.610249 0.000000
0.077107 0.609933 0.000000
0.105785 0.609598 0.000000
0.136318 0.609248 0.000000
0.168527 0.608887 0.000000
0.202233 0.608518 0.000000
0.235869 0.607970 0.000000
0.270615 0.607396 0.000000
0.306449 0.606814 0.000000
0.343213 0.606229 0.000000
0.380749 0.605645 0.000000
0.418897 0.605064 0.000000
0.457500 0.604491 0.000000
0.496395 0.603927 0.000000
0.535422 0.603376 0.000000
0.574422 0.602841 0.000000
0.613233 0.602324 0.000000
0.651697 0.601826 0.000000
0.689654 0.601351 0.000000
0.726948 0.600899 0.000000
0.763423 0.600472 0.000000
0.798925 0.600071 0.000000
0.833301 0.599696 0.000000
0.866402 0.599349 0.000000
0.898080 0.599029 0.000000
0.928190 0.598736 0.000000
0.956587 0.598470 0.000000
0.983130 0.598232 0.000000
1.000000 0.598019 0.000000
1.000000 0.597832 0.000000
1.000000 0.597669 0.000000
0.008402 0.648714 0.000000
0.030366 0.648416 0.000000
0.054706 0.648090 0.000000
0.080797 0.647713 0.000000
0.107916 0.647255 0.000000
0.136886 0.646772 0.000000
0.167553 0.646266 0.000000
0.199766 0.645743 0.000000
0.233368 0.645205 0.000000
0.268205 0.644656 0.000000
0.304118 0.644100 0.000000
0.340949 0.643540 0.000000
0.378539 0.642979 0.000000
0.416727 0.642421 0.000000
0.455353 0.641869 0.000000
0.494256 0.641326 0.000000
0.533274 0.640794 0.000000
0.572247 0.640277 0.000000
0.611014 0.639775 0.000000
0.649417 0.639292 0.000000
0.687298 0.638830 0.000000
0.724499 0.638389 0.000000
0.760868 0.637971 0.000000
0.796250 0.637578 0.000000
0.830496 0.637210 0.000000
0.863457 0.636867 0.000000
0.894988 0.636551 0.000000
0.924945 0.636260 0.000000
0.953188 0.635996 0.000000
0.979576 0.635758 0.000000
1.000000 0.635545 0.000000
1.000000 0.635357 0.000000
1.000000 0.635193 0.000000
0.009319 0.685604 0.000000
0.030076 0.685257 0.000000
0.053138 0.684875 0.000000
0.078352 0.684460 0.000000
0.105569 0.684017 0.000000
0.134633 0.683548 0.000000
0.165393 0.683057 0.000000
0.197691 0.682548 0.000000
0.231371 0.682024 0.000000
0.266276 0.681489 0.000000
0.302246 0.680945 0.000000
0.339122 0.680396 0.000000
0.376742 0.679846 0.000000
0.414946 0.679298 0.000000
0.453571 0.678753 0.000000
0.492456 0.678216 0.000000
0.531439 0.677689 0.000000
0.570359 0.677174 0.000000
0.609057 0.676674 0.000000
0.647374 0.676191 0.000000
0.685152 0.675727 0.000000
0.722236 0.675283 0.000000
0.758473 0.674861 0.000000
0.793712 0.674462 0.000000
0.827803 0.674086 0.000000
0.860601 0.673736 0.000000
0.891963 0.673410 0.000000
0.921746 0.673110 0.000000
0.949814 0.672836 0.000000
0.976030 0.672588 0.000000
1.000000 0.672364 0.000000
1.000000 0.672166 0.000000
1.000000 0.671993 0.000000
0.007243 0.721753 0.000000
0.028076 0.721412 0.000000
0.051217 0.721035 0.000000
0.076513 0.720626 0.000000
0.103810 0.720188 0.000000
0.132953 0.719723 0.000000
0.163785 0.719237 0.000000
0.196149 0.718731 0.000000
0.229887 0.718209 0.000000
0.264839 0.717674 0.000000
0.300845 0.717130 0.000000
0.337742 0.716580 0.000000
0.375369 0.716027 0.000000
0.413564 0.715473 0.000000
0.452164 0.714922 0.000000
0.491006 0.714377 0.000000
0.529930 0.713840 0.000000
0.568773 0.713314 0.000000
0.607377 0.712801 0.000000
0.645582 0.712304 0.000000
0.683233 0.711823 0.000000
0.720176 0.711362 0.000000
0.756257 0.710921 0.000000
0.791329 0.710502 0.000000
0.825243 0.710107 0.000000
0.857856 0.709735 0.000000
0.889027 0.709389 0.000000
0.918618 0.709068 0.000000
0.946492 0.708772 0.000000
0.972516 0.708503 0.000000
0.996560 0.708260 0.000000
1.000000 0.708043 0.000000
1.000000 0.707852 0.000000
0.005811 0.757129 0.000000
0.026709 0.756786 0.000000
0.049917 0.756407 0.000000
0.075279 0.755994 0.000000
0.102640 0.755552 0.000000
0.131843 0.755082 0.000000
0.162730 0.754589 0.000000
0.195141 0.754075 0.000000
0.228917 0.753543 0.000000
0.263895 0.752998 0.000000
0.299913 0.752441 0.000000
0.336810 0.751876 0.000000
0.374422 0.751306 0.000000
0.412584 0.750734 0.000000
0.451135 0.750163 0.000000
0.489912 0.749596 0.000000
0.528752 0.749035 0.000000
0.567494 0.748484 0.000000
0.605980 0.747944 0.000000
0.644051 0.747418 0.000000
0.681552 0.746907 0.000000
0.718330 0.746415 0.000000
0.754234 0.745942 0.000000
0.789116 0.745491 0.000000
0.822833 0.745062 0.000000
0.855241 0.744657 0.000000
0.886202 0.744278 0.000000
0.915581 0.743924 0.000000
0.943245 0.743596 0.000000
0.969062 0.743296 0.000000
0.992906 0.743024 0.000000
1.000000 0.742779 0.000000
1.000000 0.742563 0.000303
0.005013 0.791522 0.000000
0.025963 0.791170 0.000000
0.049223 0.790781 0.000000
0.074637 0.790357 0.000000
0.102047 0.789901 0.000000
0.131294 0.789417 0.000000
0.162217 0.788906 0.000000
0.194656 0.788374 0.000000
0.228449 0.787821 0.000000
0.263433 0.787253 0.000000
0.299445 0.786671 0.000000
0.336319 0.786079 0.000000
0.373893 0.785480 0.000000
0.412002 0.784877 0.000000
0.450482 0.784273 0.000000
0.489171 0.783670 0.000000
0.527905 0.783072 0.000000
0.566524 0.782482 0.000000
0.604870 0.781901 0.000000
0.642785 0.781333 0.000000
0.680115 0.780780 0.000000
0.716707 0.780244 0.000000
0.752414 0.779726 0.000000
0.787088 0.779230 0.000000
0.820588 0.778756 0.000000
0.852773 0.778306 0.000000
0.883508 0.777882 0.000000
0.912659 0.777484 0.000097
0.940096 0.777115 0.001457
0.965693 0.776774 0.002765
0.989323 0.776463 0.004007
1.000000 0.776183 0.005168
1.000000 0.775934 0.006235
0.004823 0.824732 0.000000
0.025813 0.824365 0.000000
0.049113 0.823959 0.000000
0.074564 0.823515 0.000000
0.102007 0.823038 0.000000
0.131281 0.822529 0.000000
0.162224 0.821993 0.000000
0.194674 0.821431 0.000000
0.228466 0.820847 0.000000
0.263436 0.820245 0.000000
0.299421 0.819627 0.000000
0.336254 0.818996 0.000000
0.373770 0.818356 0.000000
0.411805 0.817710 0.000000
0.450194 0.817060 0.000000
0.488773 0.816410 0.000000
0.527382 0.815762 0.000000
0.565858 0.815121 0.000000
0.604044 0.814487 0.000000
0.641784 0.813865 0.000000
0.678924 0.813256 0.000000
0.715313 0.812664 0.000000
0.750804 0.812090 0.000000
0.785253 0.811536 0.000000
0.818520 0.811006 0.001060
0.850467 0.810500 0.002669
0.880960 0.810021 0.004260
0.909870 0.809570 0.005818
0.937068 0.809149 0.007331
0.962432 0.808759 0.008782
0.985838 0.808402 0.010158
1.000000 0.808079 0.011442
1.000000 0.807790 0.012620
0.005203 0.856571 0.000000
0.026222 0.856184 0.000000
0.049549 0.855754 0.000000
0.075025 0.855284 0.000000
0.102486 0.854777 0.000000
0.131772 0.854236 0.000000
0.162719 0.853664 0.000000
0.195162 0.853064 0.000000
0.228936 0.852440 0.000000
0.263876 0.851794 0.000000
0.299816 0.851129 0.000000
0.336589 0.850449 0.000000
0.374029 0.849757 0.000000
0.411971 0.849056 0.000000
0.450251 0.848350 0.000000
0.488704 0.847641 0.000000
0.527169 0.846933 0.000000
0.565485 0.846228 0.000000
0.603494 0.845531 0.000000
0.641042 0.844843 0.000000
0.677976 0.844168 0.000000
0.714146 0.843508 0.001320
0.749408 0.842867 0.003095
0.783618 0.842247 0.004884
0.816638 0.841650 0.006675
0.848334 0.841078 0.008455
0.878574 0.840535 0.010210
0.907231 0.840022 0.011927
0.934181 0.839541 0.013590
0.959302 0.839094 0.015183
0.982475 0.838683 0.016691
1.000000 0.838309 0.018096
1.000000 0.837976 0.019383
0.006104 0.886866 0.000000
0.027142 0.886453 0.000000
0.050485 0.885993 0.000000
0.075972 0.885490 0.000000
0.103439 0.884947 0.000000
0.132723 0.884366 0.000000
0.163659 0.883751 0.000000
0.196080 0.883105 0.000000
0.229821 0.882431 0.000000
0.264714 0.881733 0.000000
0.300593 0.881012 0.000000
0.337290 0.880274 0.000000
0.374639 0.879521 0.000000
0.412473 0.878756 0.000000
0.450628 0.877983 0.000000
0.488939 0.877206 0.000000
0.527245 0.876427 0.000000
0.565387 0.875650 0.000000
0.603206 0.874879 0.001037
0.640548 0.874116 0.002891
0.677263 0.873365 0.004789
0.713203 0.872629 0.006720
0.748223 0.871911 0.008675
0.782183 0.871215 0.010640
0.814947 0.870543 0.012603
0.846382 0.869897 0.014551
0.876361 0.869282 0.016468
