video/luts/SPRITZ_Vandal.cube
TITLE "SPRITZ Vandal"
LUT_3D_SIZE 5
DOMAIN_MIN 0.0 0.0 0.0
DOMAIN_MAX 1.0 1.0 1.0
0.003269 0.002893 0.002200
0.237273 0.000000 0.000000
0.555779 0.000000 0.000000
0.874076 0.000000 0.000000
1.000000 0.000000 0.000000
0.000000 0.225791 0.000000
0.226981 0.222673 0.000000
0.545736 0.219882 0.000000
0.859685 0.218882 0.000000
1.000000 0.219381 0.000000
0.000000 0.532925 0.000000
0.231864 0.530691 0.000000
0.540588 0.527869 0.000000
0.839163 0.523665 0.000000
1.000000 0.521360 0.000000
0.004823 0.824732 0.000000
0.228466 0.820847 0.000000
0.527382 0.815762 0.000000
0.818520 0.811006 0.001060
1.000000 0.807790 0.012620
0.018392 1.000000 0.000000
0.240542 1.000000 0.008417
0.531871 1.000000 0.026626
0.808649 1.000000 0.049191
1.000000 0.993786 0.068820
0.001319 0.000757 0.238845
0.235778 0.000000 0.232237
0.554539 0.000000 0.223854
0.872645 0.000000 0.216381
1.000000 0.000000 0.211580
0.000000 0.224637 0.218169
0.226546 0.221813 0.213146
0.545034 0.219457 0.207445
0.858234 0.218930 0.203172
1.000000 0.219802 0.201029
0.000000 0.532104 0.201301
0.233225 0.530063 0.199942
0.538999 0.526705 0.199107
0.837459 0.522801 0.199608
1.000000 0.520749 0.201366
0.005013 0.823405 0.201012
0.228729 0.819548 0.203852
0.527207 0.814532 0.209884
0.817253 0.809881 0.218644
1.000000 0.806769 0.227001
0.021301 1.000000 0.216161
0.243016 1.000000 0.223958
0.533165 1.000000 0.237174
0.808045 0.998966 0.253632
0.998690 0.991072 0.267975
0.000000 0.000000 0.559559
0.233908 0.000000 0.553291
0.552934 0.000000 0.544655
0.870694 0.000000 0.536047
1.000000 0.000000 0.529813
0.000000 0.223230 0.538208
0.226149 0.220817 0.531926
0.544189 0.219065 0.523698
0.856282 0.219193 0.515924
1.000000 0.220579 0.510557
0.001403 0.531094 0.511362
0.235303 0.529323 0.506316
0.536985 0.525244 0.504034
0.835182 0.521764 0.503411
1.000000 0.520068 0.503557
0.005671 0.821622 0.503497
0.229408 0.817813 0.504139
0.527180 0.812904 0.506053
0.815623 0.808412 0.509321
1.000000 0.805452 0.512700
0.025720 1.000000 0.508359
0.246762 1.000000 0.511449
0.535190 1.000000 0.517011
0.807369 0.995373 0.524247
0.995306 0.987299 0.530575
0.000000 0.000000 0.880638
0.232219 0.000000 0.874280
0.551417 0.000000 0.864773
0.868732 0.000000 0.854383
1.000000 0.000000 0.846223
0.000000 0.222009 0.857083
0.225979 0.220021 0.849054
0.543467 0.218891 0.837622
0.854346 0.219690 0.825659
1.000000 0.221600 0.816552
0.004512 0.530206 0.817971
0.235526 0.528204 0.810406
0.535134 0.523920 0.808230
0.832941 0.520886 0.805642
1.000000 0.519564 0.803523
0.006802 0.819857 0.803860
0.230469 0.816108 0.801631
0.527402 0.811324 0.798482
0.814097 0.807009 0.795274
1.000000 0.804214 0.792917
0.030709 1.000000 0.796084
0.250977 1.000000 0.793719
0.537542 1.000000 0.790569
0.806868 0.991724 0.787408
0.991975 0.983548 0.784792
0.000000 0.000000 1.000000
0.231092 0.000000 1.000000
0.550356 0.000000 1.000000
0.867275 0.000000 1.000000
1.000000 0.000000 1.000000
0.000000 0.221228 1.000000
0.226001 0.219564 1.000000
0.543015 0.218904 1.000000
0.852928 0.220209 1.000000
1.000000 0.222515 1.000000
0.007042 0.529631 1.000000
0.234054 0.527022 1.000000
0.533876 0.523033 1.000000
0.831313 0.520344 1.000000
1.000000 0.519310 1.000000
0.007949 0.818568 1.000000
0.231506 0.814872 1.000000
0.527731 0.810191 1.000000
0.813039 0.806019 1.000000
1.000000 0.803353 0.996193
0.034771 1.000000 1.000000
0.254402 1.000000 0.998686
0.539499 0.999698 0.988395
0.806634 0.988954 0.976654
0.989555 0.980809 0.967065
