video/luts/SPRITZ_Vandal_Soft.cube
TITLE "SPRITZ Vandal Soft"
LUT_3D_SIZE 5
DOMAIN_MIN 0.0 0.0 0.0
DOMAIN_MAX 1.0 1.0 1.0
0.001962 0.001736 0.001320
0.242364 0.000000 0.000000
0.533467 0.000000 0.000000
0.824446 0.000000 0.000000
1.000000 0.000000 0.000000
0.000000 0.235475 0.000000
0.236189 0.233604 0.000000
0.527442 0.231929 0.000000
0.815811 0.231329 0.000000
1.000000 0.231629 0.000000
0.000000 0.519755 0.000000
0.239118 0.518414 0.000000
0.524353 0.516721 0.000000
0.803498 0.514199 0.000000
1.000000 0.512816 0.000000
0.002894 0.794839 0.000000
0.237079 0.792508 0.000000
0.516429 0.789457 0.000000
0.791112 0.786604 0.000636
1.000000 0.784674 0.007572
0.011035 1.000000 0.000000
0.244325 1.000000 0.005050
0.519123 1.000000 0.015975
0.785189 1.000000 0.029515
1.000000 0.996271 0.041292
0.000792 0.000454 0.243307
0.241467 0.000000 0.239342
0.532723 0.000000 0.234312
0.823587 0.000000 0.229828
1.000000 0.000000 0.226948
0.000000 0.234782 0.230902
0.235928 0.233088 0.227887
0.527021 0.231674 0.224467
0.814941 0.231358 0.221903
1.000000 0.231881 0.220618
0.000000 0.519262 0.220781
0.239935 0.518038 0.219965
0.523400 0.516023 0.219464
0.802476 0.513681 0.219765
1.000000 0.512449 0.220819
0.003008 0.794043 0.220607
0.237237 0.791729 0.222311
0.516324 0.788719 0.225931
0.790352 0.785929 0.231187
1.000000 0.784062 0.236201
0.012781 1.000000 0.229697
0.245810 1.000000 0.234375
0.519899 1.000000 0.242304
0.784827 0.999379 0.252179
0.999214 0.994643 0.260785
0.000000 0.000000 0.535735
0.240345 0.000000 0.531975
0.531760 0.000000 0.526793
0.822417 0.000000 0.521628
1.000000 0.000000 0.517888
0.000000 0.233938 0.522925
0.235689 0.232490 0.519156
0.526513 0.231439 0.514219
0.813769 0.231516 0.509555
1.000000 0.232347 0.506334
0.000842 0.518657 0.506817
0.241182 0.517594 0.503790
0.522191 0.515146 0.502420
0.801109 0.513058 0.502047
1.000000 0.512041 0.502134
0.003403 0.792973 0.502098
0.237645 0.790688 0.502483
0.516308 0.787742 0.503632
0.789374 0.785047 0.505593
1.000000 0.783271 0.507620
0.015432 1.000000 0.505015
0.248057 1.000000 0.506869
0.521114 1.000000 0.510207
0.784421 0.997224 0.514548
0.997184 0.992380 0.518345
0.000000 0.000000 0.828383
0.239332 0.000000 0.824568
0.530850 0.000000 0.818864
0.821239 0.000000 0.812630
1.000000 0.000000 0.807734
0.000000 0.233205 0.814250
0.235587 0.232012 0.809432
0.526080 0.231334 0.802573
0.812608 0.231814 0.795395
1.000000 0.232960 0.789931
0.002707 0.518124 0.790783
0.241316 0.516923 0.786244
0.521081 0.514352 0.784938
0.799765 0.512532 0.783385
1.000000 0.511738 0.782114
0.004081 0.791914 0.782316
0.238281 0.789665 0.780979
0.516441 0.786794 0.779089
0.788458 0.784206 0.777164
1.000000 0.782528 0.775750
0.018426 1.000000 0.777651
0.250586 1.000000 0.776231
0.522525 1.000000 0.774341
0.784121 0.995034 0.772445
0.995185 0.990129 0.770875
0.000000 0.000000 1.000000
0.238655 0.000000 1.000000
0.530214 0.000000 1.000000
0.820365 0.000000 1.000000
1.000000 0.000000 1.000000
0.000000 0.232737 1.000000
0.235601 0.231738 1.000000
0.525809 0.231343 1.000000
0.811757 0.232126 1.000000
1.000000 0.233509 1.000000
0.004225 0.517778 1.000000
0.240433 0.516213 1.000000
0.520325 0.513820 1.000000
0.798788 0.512207 1.000000
1.000000 0.511586 1.000000
0.004770 0.791141 1.000000
0.238903 0.788923 1.000000
0.516639 0.786114 1.000000
0.787824 0.783611 1.000000
1.000000 0.782012 0.997716
0.020862 1.000000 1.000000
0.252641 1.000000 0.999211
0.523699 0.999819 0.993037
0.783980 0.993373 0.985993
0.993733 0.988485 0.980239
